!!!!SEGMENT: pl-sa--105-a-iii-5--003_anonim--pastorella-secunda-collaudemus-christum-regem.krn
!!!cenid: 17xx:1367
!!!COM: Anonim
!!!COM-rismid: pe30004985
!!!CDT:
!!!CNT:
!!!OTL: Pastorella Secunda - Collaudemus Christum regem
!!!PDT:
!!!AGN:
!!!SMS-siglum: PL-SA
!!!SMS-shelfmark: 105/A III 5
!!!SMS-shelfwork: 003 W
!!!SMS-variant:
!!!SMS-altvar:
!!!NIFC-rismid: 1001041388
!!!URL-scan: http://bc.bdsandomierz.pl/dlibra/publication/1461/edition/1429/content
!!!ONB-nifc: UWAGA: części: 1. Pastorella 1ma – In hoc natali gaudio, 2. Pastorella 1ma – Ave maris stella, 3. Pastorella Secunda – Colladeamus Christum regem
**kern	**fba	**dynam	**kern	**text	**kern	**dynam	**kern	**dynam
*part4	*part4	*part4	*part3	*part3	*part2	*part2	*part1	*part1
*staff4	*	*	*staff3	*staff3	*staff2	*	*staff1	*
*Iempty	*	*	*Ibass	*	*Ivioln	*	*Iflt&Ivioln	*
*I"Fundamento.	*	*	*I"Basso Solo	*	*I"Flauto vel Violino Secundo.	*	*I"Flauto v(el) Violino Primo.	*
*I'Fund.	*	*	*I'B.	*	*I'Fl./Vln. II	*	*I'Fl./Vln. I	*
*clefF4	*	*	*clefF4	*	*clefG2	*	*clefG2	*
*k[b-]	*	*	*k[b-]	*	*k[b-]	*	*k[b-]	*
*F:	*	*	*F:	*	*F:	*	*F:	*
*M2/4	*	*	*M2/4	*	*M2/4	*	*M2/4	*
*	*	*below	*	*	*	*	*	*
=1	=1	=1	=1	=1	=1	=1	=1	=1
*	*	*	*	*	*^	*	*	*
!LO:TX:b:t= 	!	!	!LO:TX:a:t=Allegro non molto	!	!LO:TX:rj:a:B:t=Allegro non molto	!	!	!LO:TX:rj:a:B:t=Allegro non molto	!
!	!	!	!LO:TX:a:t=34	!	!	!	!	!	!
!	!	!	!LO:N:vis=00	!	!	!	!	!	!
8F\L	.	.	0r	.	8a/L	8f\L	.	8ff\	.
8F\	.	.	.	.	8a/	8f\	.	32ff\LLL	.
.	.	.	.	.	.	.	.	32ee\	.
.	.	.	.	.	.	.	.	32ff\	.
.	.	.	.	.	.	.	.	32gg\JJJ	.
8F\	.	.	.	.	8a/	8f\	.	8ff\L	.
8F\J	.	.	.	.	8a/J	8f\J	.	8cc\J	.
*	*	*	*	*	*v	*v	*	*	*
=2	=2	=2	=2	=2	=2	=2	=2	=2
!LO:TX:t=P:problem:mixed beam	!	!	!	!	!	!	!	!
8F\L	.	.	.	.	8.a\L	.	8.ff\L	.
8FF/	.	.	.	.	.	.	.	.
.	.	.	.	.	16cc\Jk	.	16aa\Jk	.
8C/	.	.	.	.	8.e/L	.	8.gg\L	.
8CC/J	.	.	.	.	.	.	.	.
.	.	.	.	.	16g/Jk	.	16bb-\Jk	.
=3	=3	=3	=3	=3	=3	=3	=3	=3
!LO:TX:t=P:problem:mixed beam	!	!	!	!	!	!	!	!
8F\L	.	.	.	.	8f/L	.	(16aa\LL	.
.	.	.	.	.	.	.	16gg\J)	.
8FF/	.	.	.	.	8a/	.	8ff'\J	.
8AA/	.	.	.	.	8cc/	.	4r	.
8C/J	.	.	.	.	8a/J	.	.	.
=4	=4	=4	=4	=4	=4	=4	=4	=4
!LO:TX:t=P:problem:mixed beam	!	!	!	!	!	!LO:DY:t=pia	!	!
8F\L	.	p	.	.	8f/	p	8f/	.
8FF/	.	.	.	.	(32f/LLL	.	(32f/LLL	.
.	.	.	.	.	32e/	.	32e/	.
.	.	.	.	.	32f/	.	32f/)	.
.	.	.	.	.	32g/JJJ)	.	32g/JJJ	.
8F\	.	.	.	.	8f/L|	.	8f/L	.
8FF/J	.	.	.	.	8c/J|	.	8c/J	.
=5	=5	=5	=5	=5	=5	=5	=5	=5
!LO:TX:t=P:problem:mixed beam	!	!	!	!	!	!	!	!
!	!	!	!LO:N:vis=00	!	!	!	!	!
8F\L	.	.	0r	.	8A/L|	.	8f/L|	.
8FF/	.	.	.	.	(16c/L	.	(16f/L	.
.	.	.	.	.	16f/JJ)	.	16a/JJ)	.
.	.	.	.	.	16qqf/	.	4qqa/|	.
8C/	.	.	.	.	8e/L	.	8g/L	.
8CC/J	.	.	.	.	16e/L	.	(16g/L	.
.	.	.	.	.	16g/JJ	.	16b-/JJ)	.
=6	=6	=6	=6	=6	=6	=6	=6	=6
8FF/L	.	.	.	.	16f/LL	.	(16a/LL	.
.	.	.	.	.	16c/J	.	16g/J)	.
8AA/	.	.	.	.	8A/J	.	8f/J|	.
8C/	.	.	.	.	4r	.	4r	.
8F/J	.	.	.	.	.	.	.	.
=7	=7	=7	=7	=7	=7	=7	=7	=7
!LO:TX:t=P:problem:mixed beam	!	!	!	!	!or	!	!or.:global	!
8FF/L	.	f	.	.	16f/LL	f	(16aa\LL	f
.	.	.	.	.	(16a/	.	16ff\)	.
8F\	.	.	.	.	16cc/	.	(16aa\	.
.	.	.	.	.	16a/JJ)	.	16ff\JJ)	.
8F\	.	.	.	.	16f/LL	.	8cc\L|	.
.	.	.	.	.	(16a/	.	.	.
8F\J	.	.	.	.	16cc/	.	8cc\J|	.
.	.	.	.	.	16a/JJ)	.	.	.
=8	=8	=8	=8	=8	=8	=8	=8	=8
8E\L	.	.	.	.	(16e/LL	.	16bb-\LL	.
.	.	.	.	.	16g/	.	16gg\	.
8E\	.	.	.	.	16cc/)	.	16bb-\	.
.	.	.	.	.	16g/JJ	.	16gg\JJ	.
8E\	.	.	.	.	16e/LL	.	4ccT\	.
.	.	.	.	.	(16g/	.	.	.
8E\J	.	.	.	.	16cc/	.	.	.
.	.	.	.	.	16g/JJ)	.	.	.
=9	=9	=9	=9	=9	=9	=9	=9	=9
!	!	!LO:DY:t=pia.	!LO:N:vis=00	!	!	!	!	!
8F\L	.	p	0r	.	(16f/LL	p	16aa\LL	p
.	.	.	.	.	16a/	.	16ff\	.
8F\	.	.	.	.	16cc/)	.	16aa\	.
.	.	.	.	.	16a/JJ	.	16ff\JJ	.
8F\	.	.	.	.	16f/LL	.	8cc\L	.
.	.	.	.	.	(16a/	.	.	.
8F\J	.	.	.	.	16cc/	.	8cc\J	.
.	.	.	.	.	16a/JJ)	.	.	.
!	!	!	!	!	!	!	!LO:LB:g=original	!
=10	=10	=10	=10	=10	=10	=10	=10	=10
8E\L	.	.	.	.	16e/LL	.	16bb-\LL	.
.	.	.	.	.	16g/	.	16gg\	.
8E\	.	.	.	.	16cc/	.	16bb-\	.
.	.	.	.	.	16g/JJ	.	16gg\JJ	.
8E\	.	.	.	.	16e/LL	.	4ccT\	.
.	.	.	.	.	16g/	.	.	.
8E\J	.	.	.	.	16cc/	.	.	.
!	!	!	!	!	!LO:SIC:t:=:v:custos a	!	!	!
.	.	.	.	.	16g/JJ	.	.	.
!	!	!	!	!	!LO:LB:g=original	!	!	!
=11	=11	=11	=11	=11	=11	=11	=11	=11
*	*	*	*	*	*^	*	*	*
!	!	!	!	!	!	!	!LO:DY:t=fo&colon;	!or	!
8F\L	.	.	.	.	8a/L	8f\	f	8aa\L|	f
8F\	.	.	.	.	8a/	4.f\yy	.	(32gg\LL	.
.	.	.	.	.	.	.	.	32ff\	.
.	.	.	.	.	.	.	.	32ee\)	.
.	.	.	.	.	.	.	.	32dd\JJJ	.
.	.	.	.	.	.	.	.	4qqcc/	.
8F\	.	.	.	.	8g/	.	.	4bnt/	.
8F\J	n4 2	.	.	.	8g/J	.	.	.	.
*	*	*	*	*	*v	*v	*	*	*
=12	=12	=12	=12	=12	=12	=12	=12	=12
4E\	6	.	.	.	8g/	.	8cc\|	.
.	.	.	.	.	32cc\LLL	.	32ee\LLL	.
.	.	.	.	.	(32dd\	.	(32ff\	.
.	.	.	.	.	32ee\	.	32gg\)	.
.	.	.	.	.	32ff\JJJ)	.	32aa\JJJ	.
8r	.	.	.	.	8gg\L	.	8gg\L	.
16C\LL	.	.	.	.	16ee\L	.	8ccc\J	.
!LO:SIC:t:=:v:custos g	!	!	!	!	!	!	!	!
16E\JJ	.	.	.	.	16cc\JJ	.	.	.
!LO:LB:g=original	!	!	!	!	!	!	!	!
=13	=13	=13	=13	=13	=13	=13	=13	=13
!LO:TX:t=P:problem:mixed beam	!	!	!	!	!	!	!	!
!	!	!	!LO:N:vis=00	!	!	!	!	!
8G\L	6 4	.	0r	.	4g/	.	4g/	.
8G\	.	.	.	.	.	.	.	.
.	.	.	.	.	.	.	(16qqcc/LL	.
.	.	.	.	.	.	.	16qqdd/JJ)	.
8GG/	5 n	.	.	.	4bnt/	.	4ddT\	.
8GG/J	.	.	.	.	.	.	.	.
=14	=14	=14	=14	=14	=14	=14	=14	=14
.	.	.	.	.	8qqb-/	.	.	.
8C/L	.	.	.	.	4cc\	.	4cc\	.
8GG/J	.	.	.	.	.	.	.	.
4CC/	.	.	.	.	4r	.	4r	.
=15	=15	=15	=15	=15	=15	=15	=15	=15
*	*	*	*	*	*^	*	*	*
!LO:TX:t=P:problem:mixed beam	!	!	!	!	!	!	!	!	!
8F\L	.	.	.	.	8a/L	4f\yy	.	8cc\L	.
8FF/	.	.	.	.	16f/L	.	.	(16a\L	.
.	.	.	.	.	16g/JJ	.	.	16b-X\JJ)	.
8F\	.	.	.	.	8a/L	8f\L	.	(16cc\LL	.
.	.	.	.	.	.	.	.	16bn\	.
8FF/J	.	.	.	.	8a/J	8f\J	.	16cc\)	.
.	.	.	.	.	.	.	.	16dd\JJ	.
=16	=16	=16	=16	=16	=16	=16	=16	=16	=16
!LO:TX:t=P:problem:mixed beam	!	!	!	!	!	!	!	!	!
8F\L	.	.	.	.	8a/L	8f\L	.	(16cc\LL	.
.	.	.	.	.	.	.	.	16b-\	.
8FF/	.	.	.	.	8a/	8f\	.	16cc\)	.
.	.	.	.	.	.	.	.	16ff\JJ|	.
8F\	.	.	.	.	8a/	8f\	.	4cc\	.
8FF/J	.	.	.	.	8a/J	8f\J	.	.	.
=17	=17	=17	=17	=17	=17	=17	=17	=17	=17
!LO:TX:t=P:problem:mixed beam	!	!	!	!	!	!	!	!	!
!	!	!	!LO:N:vis=00	!	!	!	!	!	!
8F\L	.	p	0r	.	8a/L	8f\L	p	8cc\L	p
8FF/	.	.	.	.	8a/	8f\	.	16a\L	.
.	.	.	.	.	.	.	.	16b-X\JJ	.
8F\	.	.	.	.	8a/	8f\	.	(16cc\LL	.
.	.	.	.	.	.	.	.	16bn\)	.
8FF/J	.	.	.	.	8a/J	8f\J	.	16cc\	.
.	.	.	.	.	.	.	.	16dd\JJ|	.
=18	=18	=18	=18	=18	=18	=18	=18	=18	=18
!LO:TX:t=P:problem:mixed beam	!	!	!	!	!	!	!	!	!
8F\L	.	.	.	.	8a/L	8f\L	.	16cc\LL	.
.	.	.	.	.	.	.	.	16b-\	.
8FF/	.	.	.	.	8a/	8f\	.	16cc\	.
.	.	.	.	.	.	.	.	16aa\JJ	.
8F\	.	.	.	.	8a/	8f\	.	4cc\	.
8FF/J	.	.	.	.	8a/J	8f\J	.	.	.
*	*	*	*	*	*v	*v	*	*	*
=19	=19	=19	=19	=19	=19	=19	=19	=19
!	!	!	!	!	!	!LO:DY:t=f&colon;	!	!LO:DY:t=f&colon;
4c\	.	f	.	.	4cc\	f	4cc\	f
(16A\LL	.	.	.	.	(16a/LL	.	(16a/LL	.
16G\)	.	.	.	.	16g/)	.	16g/)	.
16A\|	.	.	.	.	(16a/	.	16a/	.
16F\JJ|	.	.	.	.	16f/JJ)	.	16f/JJ	.
=20	=20	=20	=20	=20	=20	=20	=20||:	=20
!	!	!LO:DY:t=pia.	!	!	!	!	!LO:TX:t=P:problem:nad taktem łuk i adnotacja "bis"	!
8c\L|	.	p	.	.	8cc\L|	.	8cc'\L	.
8c\J|	.	.	.	.	8cc\J|	.	8cc'\J	.
(16A\LL	.	.	.	.	(16a/LL	.	(16a/LL	.
16G\)	.	.	.	.	16g/)	.	16g/)	.
16A\|	.	.	.	.	(16a/	.	16a'/	.
16F\JJ|	.	.	.	.	16f/JJ)	.	16f'/JJ	.
!	!	!	!	!	!	!	!LO:SIC:t:=:v:custos cc	!
!	!	!	!	!	!	!	!LO:LB:g=original	!
=21	=21	=21	=21	=21	=21	=21	=21:||	=21
!	!	!	!	!	!LO:TX:t=P:problem:mixed beam	!	!LO:TX:t=P:problem:takt zapisany powtórką	!
!	!	!	!LO:N:vis=00	!	!	!	!	!
8c\L|	.	.	0r	.	8c/L	.	8cc'\Lyy	.
8c\J|	.	.	.	.	8cc\J|	.	8cc'\Jyy	.
(16A\LL	.	.	.	.	(16a/LL	.	(16a/LLyy	.
16G\)	.	.	.	.	16g/)	.	16g/)yy	.
16A\|	.	.	.	.	(16a/	.	16a'/yy	.
!	!	!	!	!	!	!	!LO:SIC:t:=:v:custos c	!
16F\JJ|	.	.	.	.	16f/JJ)	.	16f'/JJyy	.
=22	=22	=22	=22	=22	=22	=22	=22	=22
!LO:TX:t=P:problem:mixed beam	!	!	!	!	!LO:TX:t=P:problem:mixed beam	!	!LO:TX:t=P:problem:mixed beam	!
8c\L	.	.	.	.	8cc\L	.	8cc\L	.
8C/J	.	.	.	.	8c/J	.	8c/J	.
4C/	.	.	.	.	4c/	.	4c/	.
=23	=23	=23	=23	=23	=23	=23	=23	=23
*	*	*	*	*	*^	*	*	*
8F\L	.	.	.	.	8a/L	8f\L	.	8.f/L	.
8F\	.	.	.	.	8a/J	8f\J	.	.	.
.	.	.	.	.	.	.	.	16a/Jk	.
8F\	.	.	.	.	8r	8ryy	.	(16cc\LL	.
.	.	.	.	.	.	.	.	16bn\)	.
!	!	!	!	!	!LO:SIC:t:=:v:custos g	!	!	!	!
8F\J	.	.	.	.	8a/	8f\	.	(16dd\	.
.	.	.	.	.	.	.	.	16cc\JJ)	.
!	!	!	!	!	!LO:LB:g=original	!	!	!	!
=24	=24	=24	=24	=24	=24	=24	=24	=24	=24
!LO:TX:t=P:problem:mixed beam	!	!	!	!	!	!	!	!	!
8E\L	.	.	.	.	8g/L	8c\L	.	16bn\LL	.
.	.	.	.	.	.	.	.	16cc\	.
8E\	.	.	.	.	8g/	8c\	.	16g\	.
.	.	.	.	.	.	.	.	16b-X\JJ	.
.	.	.	.	.	.	.	.	16qqb-/	.
8F\	.	.	.	.	8a/	8f\	.	8a/L	.
!LO:SIC:t:=:v:custos f	!	!	!	!	!	!	!	!	!
8FF/J	.	.	.	.	8a/J	8f\J	.	16g/L	.
.	.	.	.	.	.	.	.	16f/JJ	.
!LO:LB:g=original	!	!	!	!	!	!	!	!	!
=25	=25	=25	=25	=25	=25	=25	=25	=25	=25
!	!	!	!LO:N:vis=00	!	!	!	!LO:DY:t=p&colon;	!	!
8F\L	.	p	0r	.	8a/L	8f\L	p	8.f/L	.
8F\	.	.	.	.	8a/J	8f\J	.	.	.
.	.	.	.	.	.	.	.	16a/Jk	p
8F\	.	.	.	.	8r	8ryy	.	16cc\LL	.
.	.	.	.	.	.	.	.	16bn\	.
8F\J	.	.	.	.	8a/	8f\	.	16dd\	.
.	.	.	.	.	.	.	.	16cc\JJ	.
=26	=26	=26	=26	=26	=26	=26	=26	=26	=26
8E\L	.	.	.	.	8g/L	8c\L	.	16bn\LL	.
.	.	.	.	.	.	.	.	16cc\	.
8E\	.	.	.	.	16g/L	8c\J	.	16g\	.
.	.	.	.	.	16b-/JJ	.	.	16b-X\JJ	.
.	.	.	.	.	.	.	.	16qqb-/	.
8F\	.	.	.	.	8a/L	8f\L	.	8a/L	.
8F\J	.	.	.	.	8a/J	8f\J	.	16g/L	.
.	.	.	.	.	.	.	.	16f/JJ	.
*	*	*	*	*	*v	*v	*	*	*
=27	=27	=27	=27	=27	=27	=27	=27||:	=27
!	!	!	!	!	!	!LO:DY:t=f	!or	!
4F\	.	f	.	.	8ff/ 8cc/ 8f/	f	8ff/ 8cc/ 8f/	f
.	.	.	.	.	(16a/LL	.	16a/LL	.
.	.	.	.	.	16cc/JJ)	.	16cc/JJ	.
.	.	.	.	.	16qqcc/	.	8qqcc/	.
4C/	.	.	.	.	(8b-/L	.	8b-X/L	.
.	.	.	.	.	16g/L	.	16g/L	.
.	.	.	.	.	16e/JJ)	.	16e/JJ	.
=28	=28	=28	=28	=28	=28	=28	=28	=28
!	!	!	!	!	!	!	!LO:TX:t=P:problem:mixed beam	!
4FF/	.	.	.	.	8f/L|	.	8f/L	.
.	.	.	.	.	8a/|	.	8ff/	.
4r	.	.	.	.	8f/	.	8f/	.
.	.	.	.	.	8cc/J	.	8aa/J	.
=29	=29	=29	=29	=29	=29	=29	=29	=29
!	!	!	!LO:N:vis=00	!	!	!	!	!
4F\	.	.	0r	.	8ff/ 8cc/ 8f/	.	8ff/ 8cc/ 8f'/	.
.	.	.	.	.	(16a/LL	.	(16a/LL	.
.	.	.	.	.	16cc/JJ)	.	16cc/JJ)	.
.	.	.	.	.	16qqcc/	.	8qqcc/	.
4C/	.	.	.	.	8b-/L	.	8b-/L	.
.	.	.	.	.	(16g/L	.	16g/L	.
.	.	.	.	.	16e/JJ)	.	16e/JJ	.
=30	=30	=30	=30	=30	=30	=30	=30	=30
!LO:TX:t=P:problem:mixed beam	!	!	!	!	!	!	!	!
8FF/L	.	.	.	.	(16f/LL	.	(16f/LL	.
.	.	.	.	.	16c/J)	.	16c/J)	.
8F\J	.	.	.	.	8a/J|	.	8a/J	.
4FF/	.	.	.	.	8f/	.	8f/	.
!	!	!	!	!	!	!	!LO:TX:a:i:t=Finis	!
.	.	.	.	.	8r;	.	8r;	.
=31	=31	=31	=31	=31	=31	=31	=31:||	=31
!	!	!	!	!	!	!	!LO:TX:t=P:problem:takty 31-34 zapisane powtórką, z odsyłaczami "Re= pris."	!
!LO:TX:t=P:problem:mixed beam	!	!	!	!	!	!	!or	!
8F\L	.	p	.	.	8ff/ 8cc/ 8f/	p	8ffyy/ 8ccyy/ 8f/yy	f
8FF/	.	.	.	.	16f/LL	.	16a/LLyy	.
.	.	.	.	.	16a/JJ	.	16cc/JJyy	.
.	.	.	.	.	16qqa/	.	8qqcc/yy	.
8C/	.	.	.	.	8g/L	.	8b-X/Lyy	.
8CC/J	.	.	.	.	(16b-/L	.	16g/Lyy	.
.	.	.	.	.	16g/JJ)	.	16e/JJyy	.
=32	=32	=32	=32	=32	=32	=32	=32	=32
!	!	!	!	!	!	!	!LO:TX:t=P:problem:mixed beam	!
4FF/	.	.	.	.	8f/L	.	8f/Lyy	.
.	.	.	.	.	8a/	.	8ff/yy	.
4r	.	.	.	.	8f/	.	8f/yy	.
.	.	.	.	.	8cc/J	.	8aa/Jyy	.
=33	=33	=33	=33	=33	=33	=33	=33	=33
!LO:TX:t=P:problem:mixed beam	!	!	!	!	!or.	!	!	!
!	!	!	!LO:N:vis=0	!	!	!	!	!
8F\L	.	f	1r	.	8ff/ 8cc/ 8f/	f	8ffyy/ 8ccyy/ 8f'/yy	.
8FF/	.	.	.	.	16f/LL	.	(16a/LLyy	.
.	.	.	.	.	16a/JJ	.	16cc/JJ)yy	.
.	.	.	.	.	16qqa/	.	8qqcc/yy	.
8C/	.	.	.	.	8g/L	.	8b-/Lyy	.
8CC/J	.	.	.	.	16b-/L	.	16g/Lyy	.
!	!	!	!	!	!LO:SIC:t:=:v:custos f	!	!	!
.	.	.	.	.	16g/JJ	.	16e/JJyy	.
!	!	!	!	!	!LO:LB:g=original	!	!	!
=34	=34	=34	=34	=34	=34	=34	=34	=34
!LO:TX:t=P:problem:mixed beam	!	!	!	!	!	!	!	!
8FF/L	.	.	.	.	8f/L	.	(16f/LLyy	.
.	.	.	.	.	.	.	16c/J)yy	.
8F\J	.	.	.	.	8c/J	.	8a/Jyy|	.
8FF/	.	.	.	.	8A/	.	8f/yy	.
!LO:TX:a:i:t=Finis	!	!	!	!	!LO:TX:a:i:t=finis	!	!LO:TX:a:i:t=Finis	!
8r;>;<	.	.	.	.	8r;>;<	.	8r;yy	.
=35	=35	=35	=35	=35	=35	=35	=35	=35
*	*	*	*	*	*^	*	*	*
!LO:TX:t=P:problem:mixed beam	!	!	!	!	!	!	!	!	!LO:DY:t=pia.
8F\L	.	p	8F\	Col-	8a/L	8f\L	p	8ff/ 8cc/ 8f/	p
.	.	.	8qqG/	.	.	.	.	.	.
8FF/	.	.	16F\LL	-lau-	8a/	8f\	.	32ff\LLL	.
.	.	.	.	.	.	.	.	(32ee\	.
.	.	.	16E\JJ	.	.	.	.	32ff\	.
.	.	.	.	.	.	.	.	32gg\JJJ)	.
8F\	.	.	8F\	-de-	8a/	8f\	.	8ff\L	.
8FF/J	.	.	8C/	-mus	8a/J	8f\J	.	8cc\J	.
*	*	*	*	*	*v	*v	*	*	*
=36	=36	=36	=36	=36	=36	=36	=36	=36
!LO:TX:t=P:problem:mixed beam	!	!	!	!	!	!	!	!
8F\L	.	.	4F\	Chri-	8.a/L	.	8.ff\L	.
8FF/	.	.	.	.	.	.	.	.
!	!	!	!	!	!	!	!LO:SIC:t:=:v:custos g	!
.	.	.	.	.	16cc/Jk	.	16aa\Jk	.
!	!	!	!	!	!	!	!LO:LB:g=original	!
8C/	.	.	4GT\	-stum	8.e/L	.	8.gg\L	.
8CC/J	.	.	.	.	.	.	.	.
.	.	.	.	.	16g/Jk	.	16bb-\Jk	.
=37	=37	=37	=37	=37	=37	=37	=37	=37
!LO:TX:t=P:problem:mixed beam	!	!	!	!	!	!	!	!
8F\L	.	.	(16A\LL	Re-	8f/L|	.	(16aa\LL	.
.	.	.	16G\JJ)	.	.	.	16gg\J)	.
8FF/	.	.	8F\|	-gem	8a/|	.	8ff\J	.
8AA/	.	.	4r	.	8cc/|	.	4r	.
!LO:SIC:t:=:v:custos f	!	!	!	!	!	!	!	!
8C/J	.	.	.	.	8a/J|	.	.	.
!LO:LB:g=original	!	!	!	!	!	!	!	!
=38	=38	=38	=38	=38	=38	=38	=38	=38
!LO:TX:t=P:problem:mixed beam	!	!	!	!	!	!	!	!
8F\L	.	.	8F\	qui	8f/	.	8f/|	.
.	.	.	8qG/	.	16qqg/	.	.	.
8FF/	.	.	(16F\LL	na-	(32f/LLL	.	(32f/LLL	.
.	.	.	.	.	32e/	.	32e/	.
.	.	.	16E\JJ)	.	32f/)	.	32f/)	.
.	.	.	.	.	32g/JJJ	.	32g/JJJ	.
8F\	.	.	8F\	-tus	8f/L|	.	8f/L	.
8FF/J	.	.	8C/	est	8c/J|	.	8c/J	.
=39	=39	=39	=39	=39	=39	=39	=39	=39
!LO:TX:t=P:problem:mixed beam	!	!	!	!	!	!	!	!
8F\L	.	.	4F\	in	8f/L|	.	8f/L|	.
8FF/	.	.	.	.	16c/L	.	(16f/L	.
.	.	.	.	.	16f/JJ	.	16a/JJ)	.
.	.	.	.	.	16qqf/|	.	.	.
8C/	.	.	4G\	Beth-	8e/L	.	8g/L|	.
8CC/J	.	.	.	.	(16e/L	.	(16g/L	.
.	.	.	.	.	16g/JJ)	.	16b-/JJ)	.
=40	=40	=40	=40	=40	=40	=40	=40	=40
8FF/L	.	.	16A\LL	-le-	(16f/LL	.	16a/LL	.
.	.	.	16G\JJ	.	16c/J)	.	16g/J	.
8AA/	.	.	8F\	-em	8A/J	.	8f/J	.
8C/	.	.	4r	.	4r	.	4r	.
8F/J	.	.	.	.	.	.	.	.
=41	=41	=41	=41	=41	=41||:	=41	=41||:	=41
8F\L	.	.	4F\	MA-	(16f/LL	.	16aa\LL	.
.	.	.	.	.	16a/)	.	16ff\	.
8F\	.	.	.	.	(16cc/	.	16aa\	.
.	.	.	.	.	16a/JJ)	.	16ff\JJ	.
!	!	!	!	!	!	!	!LO:TX:a:t=bis	!
8F\	.	.	(8A\L	-RI-	(16f/LL	.	8cc\L|	.
.	.	.	.	.	16a/)	.	.	.
8F\J	.	.	8F\J)	-AM	(16cc/	.	8cc\J|	.
.	.	.	.	.	16a/JJ)	.	.	.
=42	=42	=42	=42	=42	=42	=42	=42	=42
8E\L	6	.	2AA/	que	16e/LL	.	16bb-\LL	.
.	.	.	.	.	16g/	.	16gg\	.
8E\	.	.	.	.	16cc/	.	16bb-\	.
.	.	.	.	.	16g/JJ	.	16gg\JJ	.
8E\	.	.	.	.	16e/LL	.	4ccT\	.
.	.	.	.	.	16g/	.	.	.
8E\J	.	.	.	.	16cc/	.	.	.
.	.	.	.	.	16g/JJ	.	.	.
!	!	!	!LO:SIC:t:=:v:custos F	!	!	!	!	!
!	!	!	!LO:LB:g=original	!	!	!	!	!
=43	=43	=43	=43	=43	=43:||	=43	=43:||	=43
!	!	!	!	!	!LO:TX:t=P:problem:takty 43-44 zapisane powtórką	!	!LO:TX:t=P:problem:takty 43-44 zapisane powtórką, z adnotacją "bis"	!
8F\L	.	.	4F\	ge-	(16f/LLyy	.	16aa\LLyy	.
.	.	.	.	.	16a/)yy	.	16ff\yy	.
8F\	.	.	.	.	(16cc/yy	.	16aa\yy	.
.	.	.	.	.	16a/JJ)yy	.	16ff\JJyy	.
8F\	.	.	8A\L	-ni-	(16f/LLyy	.	8cc\Lyy|	.
.	.	.	.	.	16a/)yy	.	.	.
8F\J	.	.	8F\J	-tri-	(16cc/yy	.	8cc\Jyy|	.
.	.	.	.	.	16a/JJ)yy	.	.	.
=44	=44	=44	=44	=44	=44	=44	=44	=44
8E\L	6	.	2C/	-cem	16e/LLyy	.	16bb-\LLyy	.
.	.	.	.	.	16g/yy	.	16gg\yy	.
8E\	.	.	.	.	16cc/yy	.	16bb-\yy	.
.	.	.	.	.	16g/JJyy	.	16gg\JJyy	.
8E\	.	.	.	.	16e/LLyy	.	4ccT\yy	.
.	.	.	.	.	16g/yy	.	.	.
8E\J	.	.	.	.	16cc/yy	.	.	.
.	.	.	.	.	16g/JJyy	.	.	.
=45	=45	=45	=45	=45	=45	=45	=45	=45
!LO:TX:a:i:t=uniso&colon;	!	!	!	!	!	!	!	!
8F\L|	.	.	8F\	or-	8f/L|	.	8f/L	.
!	!	!	!	!	!LO:SIC:t:=:v:custos nb	!	!	!
8D\|	.	.	8D\	-pha-	8d/J|	.	8d/	.
!	!	!	!	!	!LO:LB:g=original	!	!	!
8BBn\|	.	.	8BBn/	-no-	8Bn/L|	.	8Bn/	.
8D\J|	.	.	8C/	-rum	8c/J|	.	8c/J	.
=46	=46	=46	=46	=46	=46	=46	=46	=46
8F\L|	.	.	8F\	Ad-	8f/L|	.	8f/L	.
8D\|	.	.	8D\	-ju-	8d/|	.	8d/	.
8BBn\|	.	.	8BBn/	-tri-	8Bn'/	.	8Bn/	.
8D\J|	.	.	8C/	-cem	8c'/J	.	8c/J	.
=47	=47	=47	=47	=47	=47	=47	=47	=47
(16F\LL	.	.	16F\LL	Ad-	16f/LL	.	(16f/LL	.
16G\	.	.	16G\	.	(16g/	.	16g/	.
16A\	.	.	16A\	.	16a/	.	16a/)	.
16G\JJ)	.	.	16G\JJ	.	16g/JJ)	.	16g/JJ	.
8F\L|	.	.	8F\	.	8f/L	.	8f/L	.
8F#X\J|	.	.	8F#X\	-ju-	8f#X/J	.	8f#X/J	.
=48	=48	=48	=48	=48	=48	=48	=48	=48
.	.	.	8qqF/	.	.	.	.	.
4G\|	.	.	4G\	-tri-	4g/	.	4g/|	.
4GG/	.	.	4GG/	-cem	4G/	.	4G/	.
=49	=49	=49	=49||:	=49	=49	=49	=49	=49
*	*	*	*	*	*^	*	*	*
*	*	*	*	*^	*	*	*	*	*
8C/L	.	.	8C/	Col-	Chri-	8e/L	8c\L	.	4c/	.
8CC/	.	.	8C/	-lau-	-stum	8e/	8c\	.	.	.
8C/	.	.	16E\LL	-dem-	Re-	8e/	8c\	.	4r	.
!	!	!	!LO:TX:a:i:t=bis.	!	!	!	!	!	!	!
.	.	.	16D\	.	.	.	.	.	.	.
8CC/J	.	.	16E\	.	.	8e/J	8c\J	.	.	.
.	.	.	16F#X\JJ	.	.	.	.	.	.	.
=50	=50	=50	=50	=50	=50	=50	=50	=50	=50	=50
*	*	*	*2\right	*	*	*tremolo	*	*	*	*
!	!	!	!LO:TX:t=P:problem:caudy półnut po prawej: global	!	!	!	!	!	!	!
8C/L	.	.	2G\	-us.	-gem	8e/L	8c\L	.	4cc\	f
8CC/	.	.	.	.	.	8e/	8c\	.	.	.
8C/	.	.	.	.	.	8e/	8c\	.	(16ee\LL	.
.	.	.	.	.	.	.	.	.	16dd\	.
!LO:SIC:t:=:v:custos c	!	!	!	!	!	!	!	!	!	!
8CC/J	.	.	.	.	.	8e/J	8c\J	.	16ee\	.
.	.	.	.	.	.	.	.	.	16ff#X\JJ)	.
*	*	*	*	*v	*v	*	*	*	*	*
!LO:LB:g=original	!	!	!	!	!	!	!	!	!
=51	=51	=51	=51:||	=51	=51	=51	=51	=51	=51
*	*	*	*	*	*	*tremolo	*	*	*
!	!	!	!LO:TX:t=P:problem:takty 51-52 zapisane powtórką, tekst podpisany w drugiej linii w poprzednich dwu taktach	!	!	!	!	!	!
8C/L	.	.	8C/yy	.	8e/L	8c\L	.	4gg\	.
8CC/	.	.	8C/yy	.	8e/	8c\	.	.	.
8C/	.	.	16E\LLyy	.	8e/	8c\	.	4r	.
.	.	.	16D\yy	.	.	.	.	.	.
8CC/J	.	.	16E\yy	.	8e/J	8c\J	.	.	.
.	.	.	16F#X\JJyy	.	.	.	.	.	.
*	*	*	*	*	*v	*v	*	*	*
=52	=52	=52	=52	=52	=52	=52	=52	=52
*	*	*	*	*	*tremolo	*	*	*
*	*	*	*	*	*^	*	*	*
*	*	*	*	*	*	*tremolo	*	*	*
8C/L	.	.	2G\yy	.	8e/L	8c\L	.	4gg\	.
8CC/	.	.	.	.	8e/	8c\	.	.	.
8C/	.	.	.	.	8e/	8c\	.	16ee\LL	.
.	.	.	.	.	.	.	.	(16dd\	.
8CC/J	.	.	.	.	8e/J	8c\J	.	16ee\	.
.	.	.	.	.	.	.	.	16ff#X\JJ)	.
*	*	*	*	*	*Xtremolo	*Xtremolo	*	*	*
*	*	*	*	*	*v	*v	*	*	*
!	!	!	!LO:SIC:t:=:v:custos G	!	!	!	!	!
!	!	!	!LO:LB:g=original	!	!	!	!	!
=53	=53	=53	=53	=53	=53	=53	=53	=53
*	*	*	*	*	*^	*	*	*
!	!	!	!	!	!	!	!	!	!LO:DY:t=pia.
4C/	.	.	8G\	Qui	8e/	8c\	.	(8gg\L	p
.	.	.	8E\	na-	8cc\L	4.c\yy	.	8ee\)	.
4r	.	.	8Fn\	-tus	(8a'\	.	.	8ffn'\	.
!	!	!	!	!	!	!	!	!LO:SIC:t:=:v:custos g	!
.	.	.	8A\	est	8f'\J)	.	.	8aa'\J	.
*	*	*	*	*	*v	*v	*	*	*
!	!	!	!	!	!	!	!LO:LB:g=original	!
=54	=54	=54	=54	=54	=54	=54	=54	=54
4C/	.	.	8G\	in	8e/L	.	(8gg\L	.
.	.	.	8E\	Beth-	8c/	.	8ee\)	.
4GG/	n	.	8D\	-le-	8Bn/	.	(8dd'\	.
.	.	.	8F\	-em	8d/J	.	8ff'\J)	.
=55	=55	=55	=55	=55	=55	=55	=55	=55
!	!	!	!	!	!LO:TX:t=P:problem:mixed beam	!	!	!
4CC/	.	.	8E\	MA-	(8c/L	.	(8ee\L	.
.	.	.	8C/	-RI-	8ee\)	.	8cc\)	.
4r	.	.	8F\	-AM	(8dd'\	.	8ff'\	.
.	.	.	8A\	que	8ff'\J)	.	8aa'\J	.
=56	=56	=56	=56	=56	=56	=56	=56	=56
4C/	.	.	8G\	ge-	(8ee\L	.	(8gg\L	.
.	.	.	8E\	-ni-	8cc\)	.	8ee\)	.
4GG/	.	.	8D\	-tri-	(8bn'\	.	8dd'\	.
.	.	.	8F\	-cem	8dd'\J)	.	8ff'\J	.
=57	=57	=57	=57	=57	=57	=57	=57	=57
8C\L	.	.	8E\	MA-	(16cc\LL	.	(16ee\LL	.
.	.	.	.	.	16ee\J)	.	16ff\J)|	.
8E\	.	.	8G\	-RI-	8cc\J|	.	8ee\J	.
8C\	.	.	8E\	-AM	(16cc\LL	.	(16ee\LL	.
.	.	.	.	.	16ee\J)	.	16gg\J)	.
8E\J	.	.	8G\	que	8cc\J|	.	8ee\J|	.
=58	=58	=58	=58	=58	=58	=58	=58	=58
!LO:TX:t=P:problem:mixed beam	!	!	!	!	!	!	!	!
.	.	.	16qqG/	.	16qqee/	.	16qqgg/	.
8G\L	.	.	8F\	ge-	8dd\L	.	8ff\L	.
8GG/	.	.	(16D\LL	-nit-	16bn\L	.	16dd\L	.
.	.	.	16F\JJ)	.	16dd\JJ	.	16ff\JJ	.
8C/	.	.	8E\	-ri-	8cc\L	.	8ee\L|	.
!	!	!	!	!	!LO:SIC:t:=:v:custos c	!	!	!
8c\J	.	.	8E\	-cem	8ee\J	.	8ccc\J|	.
!	!	!	!LO:SIC:t:=:v:custos E	!	!	!	!	!
!	!	!	!LO:LB:g=original	!	!LO:LB:g=original	!	!	!
=59	=59	=59	=59	=59	=59	=59	=59	=59
8C\L	.	.	8E\	or-	(16cc\LL	.	(16ee\LL	.
.	.	.	.	.	16ee\J)	.	16ff\J)	.
8E\	.	.	8G\	-pha-	8cc\J|	.	8ee\J|	.
8G\	.	.	8E\	-no-	(16cc\LL	.	(16ee\LL	.
.	.	.	.	.	16ee\J)	.	16gg\J)	.
8c\J	.	.	8G\	-rum	8cc\J|	.	8ee\J|	.
=60	=60	=60	=60	=60	=60	=60	=60	=60
!LO:TX:t=P:problem:mixed beam	!	!	!	!	!	!	!	!
.	.	.	16qqG/	.	16qqee/	.	16qqgg/	.
8G\L	.	.	8F\	Ad-	8dd\L	.	8ff\L	.
8GG/	.	.	16D\LL	-ju-	16bn\L	.	16dd\L	.
.	.	.	16F\JJ	.	16dd\JJ	.	16ff\JJ	.
8C/	.	.	8E\	-tri-	8cc\L	.	8ee\L	.
8CC\J	.	.	8E\	-cem	8ee\J	.	8ccc\J	.
=61	=61	=61	=61	=61	=61	=61	=61	=61
!LO:TX:t=P:problem:mixed beam	!	!	!	!	!	!	!	!
8F\L	.	.	8F\	Ad-	8a\L	.	(16ccc\LL	.
.	.	.	.	.	.	.	16aa\)	.
8F\	.	.	8A\	-ju-	8dd\J	.	(16aa\	.
.	.	.	.	.	.	.	16ff\JJ)	.
.	.	.	.	.	8qqcc/	.	8qqee/	.
8G\	.	.	4GT\	-tric-	4bn/	.	4ddT\	.
8GG/J	.	.	.	.	.	.	.	.
=62	=62	=62	=62	=62	=62	=62	=62	=62
8C/L	.	.	4C/	-em	8cc\L|	.	8cc\L	.
8GG/J	.	.	.	.	8g\J|	.	8g\J	.
4CC/	.	.	4r	.	4c/	.	4c/	.
=63	=63	=63	=63	=63	=63	=63	=63	=63
*	*	*	*	*	*^	*	*	*
!	!	!LO:DY:rj:t=f&colon;	!LO:N:vis=00	!	!	!	!LO:DY:rj:t=f&colon;	!	!
8C/L	.	f	0r	.	8e/L	8c\L	f	8cc\|	f
8CC/	.	.	.	.	8e/	8c\	.	32cc\LLL	.
.	.	.	.	.	.	.	.	32bn\	.
.	.	.	.	.	.	.	.	32cc\	.
.	.	.	.	.	.	.	.	32dd\JJJ	.
8C/	.	.	.	.	8e/	8c\	.	8cc\L	.
8CC/J	.	.	.	.	8e/J	8c\J	.	8g\J	.
*	*	*	*	*	*v	*v	*	*	*
=64	=64	=64	=64	=64	=64	=64	=64	=64
!LO:TX:t=P:problem:mixed beam	!	!	!LO:TX:a:t=18.	!	!	!	!	!
8C/L	.	.	.	.	8.e/L	.	8.cc\L	.
8CC/	.	.	.	.	.	.	.	.
.	.	.	.	.	16g/K	.	16ee\K	.
8G\	.	.	.	.	8.Bn/	.	8.dd\	.
!LO:SIC:t:=:v:custos c	!	!	!	!	!	!	!	!
8GG/J	.	.	.	.	.	.	.	.
.	.	.	.	.	16e/Jk	.	16ff\Jk	.
!LO:LB:g=original	!	!	!	!	!	!	!	!
=65	=65	=65	=65	=65	=65	=65	=65	=65
8C\L	.	.	.	.	8c/L|	.	(16ee\LL	.
.	.	.	.	.	.	.	16dd\J)	.
8C\	.	.	.	.	8e/|	.	8cc\J|	.
8E\	.	.	.	.	8g/|	.	4r	.
8G\J	.	.	.	.	8e/J|	.	.	.
=66	=66	=66	=66	=66	=66	=66	=66	=66
8C/L	.	p	.	.	8c/	p	8c/	.
8CC/	.	.	.	.	32c/LLL	.	(32c/LLL	.
.	.	.	.	.	(32Bn/	.	32Bn/	.
.	.	.	.	.	32c/)	.	32c/	.
.	.	.	.	.	32d/JJJ|	.	32d/JJJ)	.
8C/	.	.	.	.	8c/L	.	8c/L	.
8CC/J	.	.	.	.	8G/J	.	8G/J	.
=67	=67	=67	=67	=67	=67	=67	=67	=67
!LO:TX:t=P:problem:mixed beam	!	!	!	!	!	!	!	!
!	!	!	!LO:N:vis=00	!	!	!	!	!
8C/L	.	.	0r	.	4c/	.	8c/L	.
8CC/	.	.	.	.	.	.	16c/L	.
!	!	!	!	!	!	!	!LO:TX:t=P:problem:przednutka na końcu systemu, w funkcji przypominającej	!
.	.	.	.	.	.	.	16e/JJ	.
.	.	.	.	.	.	.	16qqe/	.
!	!	!	!	!	!	!	!LO:SIC:t:=:v:custos e	!
!	!	!	!	!	!	!	!LO:LB:g=original	!
.	.	.	.	.	.	.	16qqe/	.
8G\	.	.	.	.	8Bn/L|	.	8d/L	.
8GG/J	.	.	.	.	(16B/L	.	16d/L	.
.	.	.	.	.	16d/JJ)	.	16f/JJ	.
=68	=68	=68	=68	=68	=68	=68	=68	=68
.	.	.	.	.	.	.	16qqf/	.
8C\L	.	.	.	.	8c/L	.	16e/LL	.
.	.	.	.	.	.	.	16d/J	.
8E\	.	.	.	.	8e/	.	8c/J	.
8G\	.	.	.	.	8g/	.	4r	.
8c\J	.	.	.	.	8e/J	.	.	.
=69	=69	=69	=69	=69	=69	=69	=69	=69
!:	!	!LO:DY:t=f&colon;	!	!	!	!LO:DY:t=fo&colon;	!	!
8C/L	.	f	.	.	(16c/LL	f	(16ee\LL	f
.	.	.	.	.	16e/)	.	16cc\)	.
8C/	.	.	.	.	(16g/	.	(16ee\	.
.	.	.	.	.	16e/JJ)	.	16cc\JJ)	.
8C/	.	.	.	.	(16c/LL	.	8g/L	.
.	.	.	.	.	16e/)	.	.	.
8C/J	.	.	.	.	(16g/	.	8g/J	.
!	!	!	!	!	!LO:SIC:t:=:v:custos nB	!	!	!
.	.	.	.	.	16e/JJ)	.	.	.
!	!	!	!	!	!LO:LB:g=original	!	!	!
=70	=70	=70	=70	=70	=70	=70	=70	=70
8BBn/L	.	.	.	.	(16Bn/LL	.	16ff\LL	.
.	.	.	.	.	16d/)	.	16dd\	.
8BB/	.	.	.	.	(16g/	.	16ff\	.
.	.	.	.	.	16d/JJ)	.	16dd\JJ	.
8BB/	.	.	.	.	(16B/LL	.	4g/	p
.	.	.	.	.	16d/)	.	.	.
8BB/J	.	.	.	.	(16g/	.	.	.
.	.	.	.	.	16d/JJ)	.	.	.
=71	=71	=71	=71	=71	=71	=71	=71	=71
!	!	!	!LO:N:vis=00	!	!	!	!	!
8C/L	.	p	0r	.	(16c/LL	p	16ee\LL	.
.	.	.	.	.	16e/)	.	16cc\	.
8C/	.	.	.	.	(16g/	.	16ee\	.
.	.	.	.	.	16e/JJ)	.	16cc\JJ	.
8C/	.	.	.	.	(16c/LL	.	8g/L	.
.	.	.	.	.	16e/)	.	.	.
8C/J	.	.	.	.	(16g/	.	8g/J	.
.	.	.	.	.	16e/JJ)	.	.	.
=72	=72	=72	=72	=72	=72	=72	=72	=72
8BBn/L	.	.	.	.	(16Bn/LL	.	16ff\LL	.
.	.	.	.	.	16d/)	.	16dd\	.
8BB/	.	.	.	.	(16g/	.	16ff\	.
.	.	.	.	.	16d/JJ)	.	16dd\JJ	.
8BB/	.	.	.	.	(16B/LL	.	4g/	.
.	.	.	.	.	16d/)	.	.	.
8BB/J	.	.	.	.	(16g/	.	.	.
.	.	.	.	.	16d/JJ)	.	.	.
=73	=73	=73	=73	=73	=73	=73	=73	=73
*	*	*	*	*	*^	*	*	*
!	!	!	!	!	!	!	!LO:DY:t=f&colon;	!	!
8C/L	.	f	.	.	8e/L	8c\L	f	8.cc\L	f
8C/	.	.	.	.	8e/	8c\	.	.	.
.	.	.	.	.	.	.	.	16ee\Jk	.
8C/	.	.	.	.	8e/	8c\	.	(16gg\LL	.
.	.	.	.	.	.	.	.	16ff#X\	.
8C/J	.	.	.	.	8e/J	8c\J	.	16gg\)	.
.	.	.	.	.	.	.	.	16aa\JJ|	.
*	*	*	*	*	*v	*v	*	*	*
=74	=74	=74	=74	=74	=74	=74	=74	=74
8BBn/L	.	.	.	.	8d/L 8G/	.	16gg\LL	.
.	.	.	.	.	.	.	16ff#X\	.
8BB/	.	.	.	.	8d/ 8G/	.	16gg\	.
.	.	.	.	.	.	.	16dd\JJ	.
.	.	.	.	.	.	.	16qqffn/	.
8C/	.	.	.	.	8e/ 8c/	.	8ee\L	.
8CC/J	.	.	.	.	8e/J 8c/	.	16dd\L	.
.	.	.	.	.	.	.	16cc\JJ	.
=75	=75	=75	=75	=75	=75	=75	=75	=75
!	!	!	!LO:N:vis=00	!	!	!	!	!
8C/L	.	p	0r	.	8e/L 8c/	.	8.cc\L	p
8C/	.	.	.	.	8e/ 8c/	.	.	.
.	.	.	.	.	.	.	16ee\Jk	.
8C/	.	.	.	.	8e/ 8c/	.	(16gg\LL	.
.	.	.	.	.	.	.	16ff#X\)	.
8C/J	.	.	.	.	8e/J 8c/	.	16gg\	.
.	.	.	.	.	.	.	16aa\JJ|	.
=76	=76	=76	=76	=76	=76	=76	=76	=76
8BBn/L	.	.	.	.	8d/L 8G/	.	(16gg\LL	.
.	.	.	.	.	.	.	16ff#X\)	.
8BB/	.	.	.	.	8d/ 8G/	.	16gg\	.
.	.	.	.	.	.	.	16dd\JJ|	.
.	.	.	.	.	.	.	8qqffn/	.
8C/	.	.	.	.	8e/ 8c/	.	8ee\L	.
8CC/J	.	.	.	.	8e/J 8c/	.	16dd\L	.
.	.	.	.	.	.	.	16cc\JJ	.
=77	=77	=77	=77	=77	=77	=77	=77	=77
4C/	.	f	.	.	8e/	f	8ccc\L	f
.	.	.	.	.	(16cc\LL	.	16ee\L	.
.	.	.	.	.	16ee\JJ)	.	16gg\JJ	.
!	!	!	!	!	!LO:TX:t=P:problem:mixed beam	!	!	!
.	.	.	.	.	.	.	8qqgg/	.
4GG/	.	.	.	.	8dd\L	.	8ff\L	.
.	.	.	.	.	8f/J	.	16dd\L	.
.	.	.	.	.	.	.	16bn\JJ	.
=78	=78	=78	=78	=78	=78	=78	=78	=78
!	!	!	!	!	!LO:TX:t=P:problem:mixed beam	!	!	!
4CC/	.	.	.	.	8e/L	.	8cc\L|	.
.	.	.	.	.	8g/	.	8ee\|	.
!LO:SIC:t:=:v:custos c	!	!	!	!	!	!	!	!
4r	.	.	.	.	8e/	.	8cc\|	.
!	!	!	!	!	!	!	!LO:SIC:t:=:v:custos c	!
.	.	.	.	.	8ee\J	.	8gg\J|	.
!LO:LB:g=original	!	!	!	!	!	!	!LO:LB:g=original	!
=79	=79	=79	=79	=79	=79	=79	=79	=79
!	!	!	!LO:N:vis=0	!	!	!	!	!
4C/	.	.	1r	.	8ee/ 8cc/ 8g/ 8c/	.	8ccc\L	.
.	.	.	.	.	(16cc\LL	.	16ee\L	.
.	.	.	.	.	16ee\JJ)	.	16gg\JJ	.
!	!	!	!	!	!LO:TX:t=P:problem:mixed beam	!	!	!
.	.	.	.	.	.	.	16qqgg/	.
4GG/	.	.	.	.	8dd\L	.	8ff\L	.
.	.	.	.	.	8f/J	.	16dd\L	.
.	.	.	.	.	.	.	16bn\JJ	.
=80	=80	=80	=80	=80	=80	=80	=80	=80
8CC/L	.	.	.	.	8e/L|	.	(16cc\LL	.
.	.	.	.	.	.	.	16g\J)	.
8C/J	.	.	.	.	8g/J|	.	8ee\J|	.
!	!	!	!	!	!LO:SIC:t:=:v:custos e	!	!	!
8CC/	.	.	.	.	4c/	.	4cc\	.
8r	.	.	.	.	.	.	.	.
!	!	!	!	!	!LO:LB:g=original	!	!	!
=81	=81	=81	=81	=81	=81	=81	=81	=81
8C/L	.	p	8C/	Quem	8e/L 8c/	p	8cc\|	p
8CC/	.	.	16C/LL	Lau-	8e/ 8c/	.	(32cc\LLL	.
.	.	.	.	.	.	.	32bn\	.
.	.	.	16BBn/JJ	.	.	.	32cc\)	.
.	.	.	.	.	.	.	32dd\JJJ	.
8C/	.	.	8C/	-dat	8e/ 8c/	.	8cc\L|	.
8CC/J	.	.	8GG/	sol	8e/J 8c/	.	8g\J|	.
=82	=82	=82	=82	=82	=82	=82	=82	=82
!LO:TX:t=P:problem:mixed beam	!	!	!	!	!	!	!	!
8C/L	.	.	4C/	at-	8.e/L	.	8.cc\L	.
8CC/	.	.	.	.	.	.	.	.
.	.	.	.	.	16g/Jk	.	16ee\K	.
8G\	.	.	4DT/	-que	8.Bn/L	.	8.dd\	.
8GG/J	.	.	.	.	.	.	.	.
.	.	.	.	.	16d/Jk	.	16ff\Jk	.
!	!	!	!LO:SIC:t:=:v:custos E	!	!	!	!	!
!	!	!	!LO:LB:g=original	!	!	!	!	!
=83	=83	=83	=83	=83	=83	=83	=83	=83
!LO:TX:t=P:problem:mixed beam	!	!	!	!	!	!	!	!
.	.	.	.	.	.	.	16qqff/	.
8C/L	.	.	(16E\LL	Lu-	8c/L|	.	(16ee\LL	.
.	.	.	16D\JJ)	.	.	.	16dd\J	.
8c\	.	.	8C/	-na	8e/|	.	8cc\J)	.
8E/	.	.	4r	.	8g/|	.	4r	.
8G/J	.	.	.	.	8e/J|	.	.	.
=84	=84	=84	=84	=84	=84	=84	=84	=84
8C/L	.	.	8C/	Quem	8c/|	.	8c/	.
.	.	.	8qqD/	.	16qqd/	.	16qqd/	.
16C/L	.	.	16C/LL	Lau-	16c/LL	.	16c/LL	.
16BBn/JJ	.	.	16BBn/JJ	.	16Bn/JJ	.	16Bn/JJ	.
8C/L	.	.	8C/	-dat	8c/L	.	8c/L	.
8GG/J	.	.	8GG/	Sol	8G/J	.	8G/J	.
=85	=85	=85	=85	=85	=85	=85	=85	=85
8C/L	.	.	8E\	at-	8c/L	.	8e/L	.
8CC/	.	.	8C/	-que	8G/	.	8c/J	.
.	.	.	16qqD/	.	.	.	16qqd/	.
8C/	.	.	16C/LL	Lun-	8c/	.	(16c/LL	.
.	.	.	16BBn/JJ	-a	.	.	16Bn/J)	.
8CC/J	.	.	8C/	u-	8G/J	.	8c/J|	.
=86	=86	=86	=86	=86	=86	=86	=86	=86
8C/L	.	.	8C/	-ni-	8c/	.	8c/L	.
.	.	.	16qqD/	.	16qqd/	.	.	.
16C/L	.	.	16C/LL	-ver-	16c/LL	.	16c/L	.
16BBn/JJ	.	.	16BBn/JJ	.	16Bn/JJ	.	16Bn/JJ	.
8C/L	.	.	8C/	-sa	8c/L	.	8c/L	.
8GG/J	.	.	8GG/	.	8G/J	.	8G/J	.
=87	=87	=87	=87	=87	=87	=87	=87	=87
8C/L	.	.	8G\	cre-	8e/L	.	8g/L	.
8CC/	.	.	8E\	-a-	8c/J	.	8e/J	.
.	.	.	16qqF/	.	16qqd/	.	16qqf/	.
8C/	.	.	16E\LL	-tu-	(16c/LL	.	16e/LL	.
.	.	.	16D\J	.	16Bn/J)	.	16d/J	.
8CC/J	.	.	8E\J	-ra	8c/J|	.	8e/J	.
=88	=88	=88	=88	=88	=88	=88	=88	=88
!LO:TX:rj:b:i:t=poco	!	!	!	!	!LO:TX:t=P:problem:poco f=poco for.	!	!LO:TX:t=P:problem:poco f=poc: f:	!
!LO:TX:a:i:t=unis.	!	!LO:DY:t=f&colon;	!	!	!LO:TX:rj:b:i:t=poco	!	!LO:TX:b:i:t=poco	!
8C/L	.	f	8C/	u-	8c/L|	f	8c'/L	f
8D/|	.	.	8D/	-ni-	8d/|	.	8d'/	.
8E/|	.	.	8E\	-ver-	8e/|	.	8e'/	.
8F/J|	.	.	8F\	-sa	8f/J|	.	8f'/J	.
!	!	!	!LO:SIC:t:=:v:custos G	!	!	!	!	!
!	!	!	!LO:LB:g=original	!	!	!	!	!
=89	=89	=89	=89	=89	=89	=89	=89	=89
8G\L|	.	.	8G\	cre-	8g/L|	.	8g/L|	.
8A\|	.	.	8A\	-a-	8a/|	.	8a/|	.
8B-X\|	.	.	8B-X\	-tu-	8b-X'/	.	8b-X/|	.
8A\J|	.	.	8A\	-ra	8a/J|	.	8a/J|	.
=90	=90	=90	=90	=90	=90	=90	=90	=90
16qqA/|	.	.	16qqA/	.	16qqa/	.	16qqa/	.
8G\L	.	.	8G\	cre-	8g/L	.	8g/L	.
16F\L|	.	.	(16F\LL	.	16f/L	.	16f/L	.
16E\JJ|	.	.	16E\JJ)	.	16e/JJ	.	16e/JJ	.
16F\LL	.	.	(16F\LL	.	16f/LL	.	16f/LL	.
16G\	.	.	16G\JJ)	.	16g/	.	16g/	.
16A\	.	.	(16A\LL	-a-	16a/	.	16a/	.
!	!	!	!	!	!	!	!LO:SIC:t:=:v:custos b	!
16Bn\JJ	.	.	16Bn\JJ)	.	16bn/JJ	.	16bn/JJ	.
!	!	!	!	!	!	!	!LO:LB:g=original	!
=91	=91	=91	=91	=91	=91	=91	=91	=91
8qqB-/	.	.	8qqB-/	.	8qqb-/	.	8qqb-/	.
4c\	.	.	4c\	-tu-	4cc\	.	4cc\	.
!	!	!	!	!	!LO:SIC:t:=:v:custos a	!	!	!
4C/	.	.	4C/	-ra	4c/	.	4c/	.
!	!	!	!	!	!LO:LB:g=original	!	!	!
=92	=92	=92	=92	=92	=92	=92	=92	=92
*	*	*	*	*	*^	*	*	*
!LO:TX:t=P:problem:mixed beam	!	!	!	!	!	!	!LO:DY:rj	!	!
8F\L	.	p	8F\	A-	8a/L	8f\L	p	8ff/ 8cc/ 8f/	.
.	.	.	16qqG/	.	.	.	.	.	.
8FF/	.	.	(16F\LL	-po-	8a/	8f\	.	(32ff\LLL	.
.	.	.	.	.	.	.	.	32ee\	.
.	.	.	16E\JJ)	.	.	.	.	32ff\	.
.	.	.	.	.	.	.	.	32gg\JJJ)	.
8F\	.	.	16F\	-sto-	8a/	8f\	.	8ff\L	.
.	.	.	16F\	-li	.	.	.	.	.
!LO:SIC:t:=:v:custos f	!	!	!	!	!	!	!	!	!
8FF/J	.	.	8C/	que	8a/J	8f\J	.	8cc\J	.
!LO:LB:g=original	!	!	!	!	!	!	!	!	!
=93	=93	=93	=93	=93	=93	=93	=93	=93	=93
!LO:TX:t=P:problem:mixed beam	!	!	!	!	!	!	!	!	!
8F\L	.	.	(4F\	Mar-	8.a/L	8.f\L	.	8.ff\L	.
8FF/	.	.	.	.	.	.	.	.	.
.	.	.	.	.	16cc/Jk	16f\Jkyy	.	16aa\Jk	.
8C/	.	.	4GT\)	.	8.e/L	4f\yy	.	8.gg\L	.
8CC/J	.	.	.	.	.	.	.	.	.
.	.	.	.	.	16g/Jk	.	.	16bb-X\Jk	.
*	*	*	*	*	*v	*v	*	*	*
=94	=94	=94	=94	=94	=94	=94	=94	=94
!LO:TX:t=P:problem:mixed beam	!	!	!	!	!	!	!	!
8F\L	.	.	16A\	.	8f/L|	.	(16aa\LL	.
.	.	.	16G\	-ty-	.	.	16gg\J)	.
8FF/	.	.	8F\	-res	8a/|	.	8ff\J|	.
8AA/	.	.	4r	.	8cc/|	.	4r	.
8C/J	.	.	.	.	8a/J|	.	.	.
=95	=95	=95	=95	=95	=95	=95	=95	=95
!LO:TX:t=P:problem:mixed beam	!	!	!	!	!	!	!	!
8F\L	.	.	8F\	u-	8f/	.	8f/	.
.	.	.	16qqG/	.	16qqg/	.	8qqg/	.
8FF/	.	.	16F\LL	-ni-	(32f/LLL	.	(32f/LLL	.
.	.	.	.	.	32e/	.	32e/	.
.	.	.	16E\JJ	.	32f/	.	32f/	.
.	.	.	.	.	32g/JJJ)	.	32g/JJJ)	.
8F\	.	.	8F\	-ver-	8f'/L	.	8f/L	.
8FF/J	.	.	8C/	-si	8c'/J	.	8c/J	.
!	!	!	!LO:SIC:t:=:v:custos	!	!	!	!	!
!	!	!	!LO:LB:g=original	!	!	!	!	!
=96	=96	=96	=96	=96	=96	=96	=96	=96
!LO:TX:t=P:problem:mixed beam	!	!	!	!	!	!	!	!
8F\L	.	.	4F\	Coe-	8A/L|	.	8f/L|	.
8FF/	.	.	.	.	(16c/L	.	(16f/L	.
.	.	.	.	.	16f/JJ)	.	16a/JJ)	.
.	.	.	.	.	16qqf/|	.	16qqa/|	.
8C/	.	.	4GT\	-li	8e/L	.	8g/L	.
8CC\J	.	.	.	.	(16e/L	.	(16g/L	.
.	.	.	.	.	16g/JJ)	.	16b-/JJ)	.
=97	=97	=97	=97	=97	=97	=97	=97	=97
!LO:TX:t=P:problem:mixed beam	!	!	!	!	!	!	!	!
8F\L	.	.	16A\LL	Ci-	8f/L|	.	(16a/LL	.
.	.	.	16G\JJ	.	.	.	16g/J	.
8FF/	.	.	8F\|	-ves	8a/|	.	8f/J)|	.
8AA/	.	.	4r	.	8cc/|	.	4r	.
8C/J	.	.	.	.	8a/J|	.	.	.
=98	=98	=98	=98	=98	=98	=98	=98	=98
!LO:TX:t=P:problem:mixed beam	!	!	!	!	!	!	!	!
8F\L	.	.	4F\	nos	(16f/LL	.	(16aa\LL	.
.	.	.	.	.	16a/)	.	16ff\)	.
8FF/	.	.	.	.	(16cc/	.	(16aa\	.
.	.	.	.	.	16a/JJ)	.	16ff\JJ)	.
8F\	.	.	(8A\L	e-	(16f/LL	.	8cc'\L	.
.	.	.	.	.	16a/)	.	.	.
8FF/J	.	.	8F\J)	-ti-	(16cc/	.	8cc'\J	.
.	.	.	.	.	16a/JJ)	.	.	.
=99	=99	=99	=99	=99	=99	=99	=99	=99
!LO:TX:t=P:problem:mixed beam	!	!	!	!	!	!	!	!
8B-\L	.	.	2C/	-am	(16e/LL	.	(16bb-\LL	.
.	.	.	.	.	16g/)	.	16gg\)	.
8BB-/	.	.	.	.	(16cc/	.	(16bb-\	.
.	.	.	.	.	16g/JJ)	.	16gg\JJ)	.
8B-\	.	.	.	.	(16e/LL	.	4ccT\	.
.	.	.	.	.	16g/)	.	.	.
8BB-/J	.	.	.	.	(16cc/	.	.	.
.	.	.	.	.	16g/JJ)	.	.	.
=100	=100	=100	=100	=100	=100	=100	=100	=100
!LO:TX:t=P:problem:mixed beam	!	!	!	!	!	!	!	!
8F\L	.	.	4F\	cum	(16f/LL	.	16aa\LL	.
.	.	.	.	.	16a/)	.	16ff\	.
8FF/	.	.	.	.	(16cc/	.	16aa\	.
.	.	.	.	.	16a/JJ)	.	16ff\JJ	.
8F\	.	.	(8A\L	ju-	(16f/LL	.	8cc'\L	.
.	.	.	.	.	16a/)	.	.	.
8FF/J	.	.	8F\J)	-bi-	(16cc/	.	8cc'\J	.
.	.	.	.	.	16a/JJ)	.	.	.
=101	=101	=101	=101	=101	=101	=101	=101	=101
!LO:TX:t=P:problem:mixed beam	!	!	!	!	!	!	!	!
8BB-/L	.	.	2C/	-lo	(16e/LL	.	16bb-\LL	.
.	.	.	.	.	16g/)	.	16gg\	.
8B-\J	.	.	.	.	(16cc/	.	16bb-\	.
.	.	.	.	.	16g/JJ)	.	16gg\JJ	.
4BB-/	.	.	.	.	(16e/LL	.	4ccT\	.
.	.	.	.	.	16g/)	.	.	.
.	.	.	.	.	(16cc/	.	.	.
!	!	!	!	!	!LO:SIC:t:=:v:custos f	!	!	!
.	.	.	.	.	16g/JJ)	.	.	.
!	!	!	!	!	!LO:LB:g=original	!	!	!
=102	=102	=102	=102	=102	=102	=102	=102	=102
!LO:TX:t=P:problem:brak czterech taktów	!	!	!	!	!	!	!	!
2ryy	.	.	4F\	nos	(8f/L	.	8a\L	.
.	.	.	.	.	8a/)	.	8cc\	.
.	.	.	8.F\	e-	(8cc/	.	(8ee-X\	.
!	!	!	!	!	!	!	!LO:SIC:t:=:v:custos d	!
.	.	.	.	.	8a/J)	.	8cc\J)	.
.	.	.	16F\	-ti-	.	.	.	.
!	!	!	!	!	!	!	!LO:LB:g=original	!
=103	=103	=103	=103	=103	=103	=103	=103	=103
2ryy	.	.	8F\	-am	(8f/L	.	(16dd\LL	.
.	.	.	.	.	.	.	16b-\)	.
.	.	.	8F\	cum	8b-/J)	.	(16dd\	.
.	.	.	.	.	.	.	16b-\JJ)	.
.	.	.	16qqF-X/	.	.	.	.	.
.	.	.	8D/	ju-	4dd\	.	4ff\	.
.	.	.	16C/	-bi-	.	.	.	.
.	.	.	16BB-/	-lo	.	.	.	.
=104	=104	=104	=104	=104	=104	=104	=104	=104
2ryy	.	.	8F\	Be-	(8f/L	.	(16a\LL	.
.	.	.	.	.	.	.	16cc\)	.
.	.	.	16F\	-ne-	8a/)	.	(16ee-X\	.
.	.	.	16F\	-di-	.	.	16cc\JJ)	.
.	.	.	8F\	-ca-	(8cc/	.	(16a\LL	.
.	.	.	.	.	.	.	16cc\	.
.	.	.	8F\	-mus	8a/J)	.	16ee-\)	.
.	.	.	.	.	.	.	16cc\JJ	.
!	!	!	!LO:SIC:t:=:v:custos	!	!	!	!	!
!	!	!	!LO:LB:g=original	!	!	!	!	!
=105	=105	=105	=105	=105	=105	=105	=105	=105
2ryy	.	.	8D\	Do-	16b-/LL|	.	(16dd\LL	.
.	.	.	.	.	(16b-/	.	16b-\	.
.	.	.	8F\	-mi-	16a/	.	16a\	.
.	.	.	.	.	16b-/JJ)	.	16b-\JJ)	.
.	.	.	4BB-/	-no	4B-T/	.	4B-T/	.
=106	=106	=106	=106	=106	=106	=106	=106	=106
!LO:TX:t=P:problem:mixed beam	!	!	!	!	!LO:TX:t=P:problem:mixed beam	!	!	!
8G\L	n	.	4G\	nos	8d/L	.	(8bn\L	.
8GG/	.	.	.	.	(8bn\	.	8dd\)	.
8G\	.	.	8.G\	e-	(8dd\)	.	(8ff\	.
8GG/J	.	.	.	.	8b\J)	.	8dd\J)	.
.	.	.	16G\	-ti-	.	.	.	.
=107	=107	=107	=107	=107	=107	=107	=107	=107
!LO:TX:t=P:problem:mixed beam	!	!	!	!	!	!	!	!
8c\L	.	.	8G\	-am	(8g\L	.	(16een\LL	.
.	.	.	.	.	.	.	16cc\)	.
8C/	.	.	8G\	cum	8cc\J)	.	(16ee\	.
.	.	.	.	.	.	.	16cc\JJ)	.
.	.	.	16qqF/	.	.	.	.	.
8c\	.	.	8En\	ju-	4eet\	.	4ggT\	.
8C/J	.	.	16D/	-bi-	.	.	.	.
.	.	.	16C/	-lo	.	.	.	.
=108	=108	=108	=108	=108	=108	=108	=108	=108
!LO:TX:t=P:problem:mixed beam	!	!	!	!	!	!	!	!
8G\L	.	.	8G\	Be-	(8g\L	.	8bn\L	.
8GG/	.	.	16G\	-ne-	8bn\)	.	8dd\	.
.	.	.	16G\	-di-	.	.	.	.
8G\	.	.	8G\	-ca-	(8dd\	.	8ff\	.
8GG/J	.	.	8G\	-mus	8b\J)	.	8dd\J	.
=109	=109	=109	=109	=109	=109	=109	=109	=109
.	.	.	8qqF/	.	.	.	.	.
!LO:TX:t=P:problem:mixed beam	!	!	!	!	!	!	!	!
8c\L	.	.	8.E\	Do-	16cc\LL|	.	16ee\LL|	.
.	.	.	.	.	(16cc\	.	(16cc\	.
8C/	.	.	.	.	16bn\	.	16bn\	.
.	.	.	16G\	-mi-	16cc\JJ)	.	16cc\JJ)	.
8c\	.	.	4C/	-no	4c/	.	4c/	.
!LO:SIC:t:=:v:custos f	!	!	!	!	!	!	!	!
8C/J	.	.	.	.	.	.	.	.
!LO:LB:g=original	!	!	!	!	!	!	!	!
=110	=110	=110	=110	=110	=110	=110	=110	=110
*	*	*	*	*	*^	*	*	*
8r	.	.	4F\	be-	8a/L	8f\L	.	8.f/L	.
8F\L	.	.	.	.	8a/	8f\	.	.	.
.	.	.	.	.	.	.	.	16a/Jk	.
8F\	.	.	8F\	-ne-	8a/	8f\	.	16cc\LL	.
.	.	.	.	.	.	.	.	(16bn\	.
8F\J	.	.	8A\	-di-	8a/J	8f\J	.	16cc\)	.
.	.	.	.	.	.	.	.	16dd\JJ|	.
=111	=111	=111	=111	=111	=111	=111	=111	=111	=111
!LO:TX:t=P:problem:mixed beam	!	!	!	!	!	!	!	!	!
8E\L	.	.	4G\	-ca-	8g/L	8c\L	.	(16cc\LL	.
.	.	.	.	.	.	.	.	16bn\	.
8E\	.	.	.	.	8g/	8c\	.	16cc\)	.
.	.	.	.	.	.	.	.	16g\JJ|	.
.	.	.	.	.	.	.	.	16qqb-X/	.
8F\	.	.	4A\	-mus	8a/	8f\	.	8a/L	.
8FF/J	.	.	.	.	8a/J	8f\J	.	16g/L	.
.	.	.	.	.	.	.	.	16f/JJ	.
=112	=112	=112	=112	=112	=112	=112	=112	=112	=112
8r	.	.	(8F\L	be-	8a/L	8f\L	.	8.f/L	.
8F\L	.	.	8C\J)	-ne-	8a/	8f\	.	.	.
.	.	.	.	.	.	.	.	16a/Jk	.
8F\	.	.	8F\	-di-	8a/	8f\	.	(16cc\LL	.
.	.	.	.	.	.	.	.	16bn\)	.
8F\J	.	.	8A\	-ca-	8a/J	8f\J	.	16cc\	.
.	.	.	.	.	.	.	.	16dd\JJ|	.
=113	=113	=113	=113	=113	=113	=113	=113	=113	=113
!LO:TX:t=P:problem:mixed beam	!	!	!	!	!	!	!	!	!
8E\L	.	.	4G\	-mus	8g/L	8c\L	.	16cc\LL	.
.	.	.	.	.	.	.	.	(16bn\	.
8E\	.	.	.	.	8g/	8c\	.	16cc\)	.
!	!	!	!	!	!	!	!	!LO:SIC:t:=:v:custos użyty jako łamanie pięciolinii	!
.	.	.	.	.	.	.	.	16g\JJ|	.
!	!	!	!	!	!	!	!	!LO:LB:g=original	!
.	.	.	.	.	.	.	.	16qqb-X/	.
8F\	.	.	4A\	.	8a/	8e\	.	8a/L	.
8FF/J	.	.	.	.	8a/J	8e\J	.	16g/L	.
.	.	.	.	.	.	.	.	16f/JJ	.
!	!	!	!LO:SIC:t:=:v:custos F	!	!	!	!	!	!
!	!	!	!LO:LB:g=original	!	!	!	!	!	!
=114	=114	=114	=114	=114	=114	=114	=114	=114	=114
4F\	.	.	(8F\L	Do-	8a/L	8f\L	.	8ff/ 8cc/ 8f/	.
.	.	.	8A\J)	.	8a/J	8f\J	.	(16a/LL	.
.	.	.	.	.	.	.	.	16cc/JJ)	.
.	.	.	.	.	8qqa/	.	.	16qqcc/	.
4C/	.	.	(8G\L	.	8g/L	4f\yy	.	8b-X/L	.
.	.	.	8E\J)	.	16e/L	.	.	16g/L	.
!	!	!	!	!	!LO:SIC:t:=:v:custos f	!	!	!	!
.	.	.	.	.	16g/JJ	.	.	16e/JJ	.
*	*	*	*	*	*v	*v	*	*	*
!	!	!	!	!	!LO:LB:g=original	!	!	!
=115	=115	=115	=115	=115	=115	=115	=115	=115
!	!	!	!	!	!	!	!LO:TX:t=P:problem:mixed beam	!
4FF/	.	.	8F\	.	8f/L	.	8f/L	.
.	.	.	8A\	-mi-	8a/	.	8ff\	.
4r	.	.	4C/	-no	8f/	.	8f/	.
.	.	.	.	.	8cc/J	.	8aa/J	.
=116	=116	=116	=116	=116	=116	=116	=116	=116
4F\	.	.	(8F\L	be-	8ff/ 8cc/ 8f/	.	8ff/ 8cc/ 8f/	.
.	.	.	8A\J)	.	16f/LL	.	(16a/LL	.
.	.	.	.	.	16a/JJ	.	16cc/JJ)	.
.	.	.	.	.	16qqa/	.	8qqcc/	.
4C/	.	.	(8G\L	-ne-	8g/L	.	8b-/L	.
.	.	.	8E\J)	-di-	16e/L	.	16g/L	.
.	.	.	.	.	16c/JJ	.	16e/JJ	.
=117	=117	=117	=117	=117	=117	=117	=117	=117
!LO:TX:a:i:t=unis.	!	!	!	!	!	!	!LO:TX:t=P:problem:poco f=poco for.	!
!LO:TX:t=P:problem:mixed beam	!	!	!	!	!	!	!LO:TX:rj:b:i:t=poco	!
8FF/L	.	.	8F\	-ca-	8f/L|	.	8f/|	.
16F'\L	.	.	(16F\LL	.	(16f/L	.	16f/LL	f
16E'\JJ|	.	.	16E\JJ)	.	16e/JJ)	.	16e/JJ	.
!LO:TX:t=P:problem:mixed beam	!	!	!	!	!	!	!	!
8F\L|	.	.	8F\	.	8f/L|	.	8f/L	.
8BBn/J|	.	.	8BBn/	.	8Bn/J	.	8Bn/J	.
=118	=118	=118	=118	=118	=118	=118	=118	=118
8C\L	.	.	8C/	.	8c/L	.	8c/L	.
16D\L	.	.	16D\LL	.	16d/L	.	16d/L	.
16E\JJ	.	.	16E\JJ	.	16e/JJ	.	16e/JJ	.
16F\LL	.	.	16F\LL	.	16f/LL	.	16f/LL	.
16G\	.	.	16G\	.	16g/	.	16g/	.
16A\	.	.	16A\	.	16a/	.	16a/	.
16B-X\JJ	.	.	16B-\JJ	.	16b-X/JJ	.	16b-X/JJ	.
=119	=119	=119	=119	=119	=119	=119	=119	=119
!	!	!	!	!	!LO:TX:t=P:problem:mixed beam	!	!	!
8c\L	.	.	8c\L	.	8cc\L|	.	8cc/L	.
8E\	.	.	8E\J	.	8e/|	.	8e/	.
8F\	.	.	8F\	.	8f/|	.	8f/	.
8BBn\J	.	.	8BBn/	-mus	8Bn'/J	.	8Bn/J	.
=120	=120	=120	=120	=120	=120	=120	=120	=120
!LO:TX:b:i:t=Da Capo \nad Signum \nFinis	!	!	!	!	!LO:TX:b:i:t=Da Capo ad Singnu(m) finis	!	!LO:TX:b:i:t=Da Capo&colon; ad Signum	!
2C;</	.	.	4.C/	Do-	2c;</	.	2c;/	.
.	.	.	8C/	-min-	.	.	.	.
=121	=121	=121	=121	=121	=121	=121	=121||	=121
*	*	*	*	*	*^	*	*	*
!LO:TX:b:t= 	!	!	!	!	!LO:TX:rj:a:B:t=Allegro non molto	!	!	!LO:TX:rj:a:B:t=Allegro non molto	!
8F\Lyy	.	.	4FF/	-o	8a/Lyy	8f\Lyy	.	8ff\yy	.
8F\yy	.	.	.	.	8a/yy	8f\yy	.	32ff\LLLyy	.
.	.	.	.	.	.	.	.	32ee\yy	.
.	.	.	.	.	.	.	.	32ff\yy	.
.	.	.	.	.	.	.	.	32gg\JJJyy	.
8F\yy	.	.	4r	.	8a/yy	8f\yy	.	8ff\Lyy	.
8F\Jyy	.	.	.	.	8a/Jyy	8f\Jyy	.	8cc\Jyy	.
*	*	*	*	*	*v	*v	*	*	*
=122	=122	=122	=122	=122	=122	=122	=122	=122
!	!	!	!LO:SIC:s:o:=:v:błednie wpisane pauzy	!	!	!	!	!
!	!	!	!LO:TX:a:t=28	!	!	!	!	!
!LO:TX:t=P:problem:mixed beam	!	!LO:N:vis=00	!	!	!	!	!	!
8F\Lyy	.	.	0r	.	8.a\Lyy	.	8.ff\Lyy	.
8FF/yy	.	.	.	.	.	.	.	.
.	.	.	.	.	16cc\Jkyy	.	16aa\Jkyy	.
8C/yy	.	.	.	.	8.e/Lyy	.	8.gg\Lyy	.
8CC/Jyy	.	.	.	.	.	.	.	.
.	.	.	.	.	16g/Jkyy	.	16bb-\Jkyy	.
=123	=123	=123	=123	=123	=123	=123	=123	=123
!LO:TX:t=P:problem:mixed beam	!	!	!	!	!	!	!	!
8F\Lyy	.	.	.	.	8f/Lyy	.	(16aa\LLyy	.
.	.	.	.	.	.	.	16gg\J)yy	.
8FF/yy	.	.	.	.	8a/yy	.	8ff'\Jyy	.
8AA/yy	.	.	.	.	8cc/yy	.	4ryy	.
8C/Jyy	.	.	.	.	8a/Jyy	.	.	.
=124	=124	=124	=124	=124	=124	=124	=124	=124
!LO:TX:t=P:problem:mixed beam	!	!	!	!	!	!LO:DY:t=pia	!	!
8F\Lyy	.	p	.	.	8f/yy	p	8f/yy	.
8FF/yy	.	.	.	.	(32f/LLLyy	.	(32f/LLLyy	.
.	.	.	.	.	32e/yy	.	32e/yy	.
.	.	.	.	.	32f/yy	.	32f/)yy	.
.	.	.	.	.	32g/JJJ)yy	.	32g/JJJyy	.
8F\yy	.	.	.	.	8f/Lyy|	.	8f/Lyy	.
8FF/Jyy	.	.	.	.	8c/Jyy|	.	8c/Jyy	.
=125	=125	=125	=125	=125	=125	=125	=125	=125
!LO:TX:t=P:problem:mixed beam	!	!	!	!	!	!	!	!
8F\Lyy	.	.	.	.	8A/Lyy|	.	8f/Lyy|	.
8FF/yy	.	.	.	.	(16c/Lyy	.	(16f/Lyy	.
.	.	.	.	.	16f/JJ)yy	.	16a/JJ)yy	.
.	.	.	.	.	16qqf/yy	.	4qqa/yy|	.
8C/yy	.	.	.	.	8e/Lyy	.	8g/Lyy	.
8CC/Jyy	.	.	.	.	16e/Lyy	.	(16g/Lyy	.
.	.	.	.	.	16g/JJyy	.	16b-/JJ)yy	.
=126	=126	=126	=126	=126	=126	=126	=126	=126
!	!	!	!LO:N:vis=00	!	!	!	!	!
8FF/Lyy	.	.	0r	.	16f/LLyy	.	(16a/LLyy	.
.	.	.	.	.	16c/Jyy	.	16g/J)yy	.
8AA/yy	.	.	.	.	8A/Jyy	.	8f/Jyy|	.
8C/yy	.	.	.	.	4ryy	.	4ryy	.
8F/Jyy	.	.	.	.	.	.	.	.
=127	=127	=127	=127	=127	=127	=127	=127	=127
!LO:TX:t=P:problem:mixed beam	!	!	!	!	!or	!	!or.:global	!
8FF/Lyy	.	f	.	.	16f/LLyy	f	(16aa\LLyy	f
.	.	.	.	.	(16a/yy	.	16ff\)yy	.
8F\yy	.	.	.	.	16cc/yy	.	(16aa\yy	.
.	.	.	.	.	16a/JJ)yy	.	16ff\JJ)yy	.
8F\yy	.	.	.	.	16f/LLyy	.	8cc\Lyy|	.
.	.	.	.	.	(16a/yy	.	.	.
8F\Jyy	.	.	.	.	16cc/yy	.	8cc\Jyy|	.
.	.	.	.	.	16a/JJ)yy	.	.	.
=128	=128	=128	=128	=128	=128	=128	=128	=128
8E\Lyy	.	.	.	.	(16e/LLyy	.	16bb-\LLyy	.
.	.	.	.	.	16g/yy	.	16gg\yy	.
8E\yy	.	.	.	.	16cc/)yy	.	16bb-\yy	.
.	.	.	.	.	16g/JJyy	.	16gg\JJyy	.
8E\yy	.	.	.	.	16e/LLyy	.	4ccT\yy	.
.	.	.	.	.	(16g/yy	.	.	.
8E\Jyy	.	.	.	.	16cc/yy	.	.	.
.	.	.	.	.	16g/JJ)yy	.	.	.
=129	=129	=129	=129	=129	=129	=129	=129	=129
!	!	!LO:DY:t=pia.	!	!	!	!	!	!
8F\Lyy	.	p	.	.	(16f/LLyy	p	16aa\LLyy	p
.	.	.	.	.	16a/yy	.	16ff\yy	.
8F\yy	.	.	.	.	16cc/)yy	.	16aa\yy	.
.	.	.	.	.	16a/JJyy	.	16ff\JJyy	.
8F\yy	.	.	.	.	16f/LLyy	.	8cc\Lyy	.
.	.	.	.	.	(16a/yy	.	.	.
8F\Jyy	.	.	.	.	16cc/yy	.	8cc\Jyy	.
.	.	.	.	.	16a/JJ)yy	.	.	.
!	!	!	!	!	!	!	!LO:LB:g=original	!
=130	=130	=130	=130	=130	=130	=130	=130	=130
!	!	!	!LO:N:vis=00	!	!	!	!	!
8E\Lyy	.	.	0r	.	16e/LLyy	.	16bb-\LLyy	.
.	.	.	.	.	16g/yy	.	16gg\yy	.
8E\yy	.	.	.	.	16cc/yy	.	16bb-\yy	.
.	.	.	.	.	16g/JJyy	.	16gg\JJyy	.
8E\yy	.	.	.	.	16e/LLyy	.	4ccT\yy	.
.	.	.	.	.	16g/yy	.	.	.
8E\Jyy	.	.	.	.	16cc/yy	.	.	.
!	!	!	!	!	!LO:SIC:t:=:v:custos a	!	!	!
.	.	.	.	.	16g/JJyy	.	.	.
!	!	!	!	!	!LO:LB:g=original	!	!	!
=131	=131	=131	=131	=131	=131	=131	=131	=131
*	*	*	*	*	*^	*	*	*
!	!	!	!	!	!	!	!LO:DY:t=fo&colon;	!or	!
8F\Lyy	.	.	.	.	8a/Lyy	8f\yy	f	8aa\Lyy|	f
8F\yy	.	.	.	.	8a/yy	4.f\yy	.	(32gg\LLyy	.
.	.	.	.	.	.	.	.	32ff\yy	.
.	.	.	.	.	.	.	.	32ee\)yy	.
.	.	.	.	.	.	.	.	32dd\JJJyy	.
.	.	.	.	.	.	.	.	4qqcc/yy	.
8F\yy	.	.	.	.	8g/yy	.	.	4bnt/yy	.
8F\Jyy	n4 2	.	.	.	8g/Jyy	.	.	.	.
*	*	*	*	*	*v	*v	*	*	*
=132	=132	=132	=132	=132	=132	=132	=132	=132
4E\yy	6	.	.	.	8g/yy	.	8cc\yy|	.
.	.	.	.	.	32cc\LLLyy	.	32ee\LLLyy	.
.	.	.	.	.	(32dd\yy	.	(32ff\yy	.
.	.	.	.	.	32ee\yy	.	32gg\)yy	.
.	.	.	.	.	32ff\JJJ)yy	.	32aa\JJJyy	.
8ryy	.	.	.	.	8gg\Lyy	.	8gg\Lyy	.
16C\LLyy	.	.	.	.	16ee\Lyy	.	8ccc\Jyy	.
!LO:SIC:t:=:v:custos g	!	!	!	!	!	!	!	!
16E\JJyy	.	.	.	.	16cc\JJyy	.	.	.
!LO:LB:g=original	!	!	!	!	!	!	!	!
=133	=133	=133	=133	=133	=133	=133	=133	=133
!LO:TX:t=P:problem:mixed beam	!	!	!	!	!	!	!	!
8G\Lyy	6 4	.	.	.	4g/yy	.	4g/yy	.
8G\yy	.	.	.	.	.	.	.	.
.	.	.	.	.	.	.	(16qqcc/LLyy	.
.	.	.	.	.	.	.	16qqdd/JJ)yy	.
8GG/yy	5 n	.	.	.	4bnt/yy	.	4ddT\yy	.
8GG/Jyy	.	.	.	.	.	.	.	.
=134	=134	=134	=134	=134	=134	=134	=134	=134
.	.	.	.	.	8qqb-/yy	.	.	.
!	!	!	!LO:N:vis=00	!	!	!	!	!
8C/Lyy	.	.	0r	.	4cc\yy	.	4cc\yy	.
8GG/Jyy	.	.	.	.	.	.	.	.
4CC/yy	.	.	.	.	4ryy	.	4ryy	.
=135	=135	=135	=135	=135	=135	=135	=135	=135
*	*	*	*	*	*^	*	*	*
!LO:TX:t=P:problem:mixed beam	!	!	!	!	!	!	!	!	!
8F\Lyy	.	.	.	.	8a/Lyy	4f\yy	.	8cc\Lyy	.
8FF/yy	.	.	.	.	16f/Lyy	.	.	(16a\Lyy	.
.	.	.	.	.	16g/JJyy	.	.	16b-X\JJ)yy	.
8F\yy	.	.	.	.	8a/Lyy	8f\Lyy	.	(16cc\LLyy	.
.	.	.	.	.	.	.	.	16bn\yy	.
8FF/Jyy	.	.	.	.	8a/Jyy	8f\Jyy	.	16cc\)yy	.
.	.	.	.	.	.	.	.	16dd\JJyy	.
=136	=136	=136	=136	=136	=136	=136	=136	=136	=136
!LO:TX:t=P:problem:mixed beam	!	!	!	!	!	!	!	!	!
8F\Lyy	.	.	.	.	8a/Lyy	8f\Lyy	.	(16cc\LLyy	.
.	.	.	.	.	.	.	.	16b-\yy	.
8FF/yy	.	.	.	.	8a/yy	8f\yy	.	16cc\)yy	.
.	.	.	.	.	.	.	.	16ff\JJyy|	.
8F\yy	.	.	.	.	8a/yy	8f\yy	.	4cc\yy	.
8FF/Jyy	.	.	.	.	8a/Jyy	8f\Jyy	.	.	.
=137	=137	=137	=137	=137	=137	=137	=137	=137	=137
!LO:TX:t=P:problem:mixed beam	!	!	!	!	!	!	!	!	!
8F\Lyy	.	p	.	.	8a/Lyy	8f\Lyy	p	8cc\Lyy	p
8FF/yy	.	.	.	.	8a/yy	8f\yy	.	16a\Lyy	.
.	.	.	.	.	.	.	.	16b-X\JJyy	.
8F\yy	.	.	.	.	8a/yy	8f\yy	.	(16cc\LLyy	.
.	.	.	.	.	.	.	.	16bn\)yy	.
8FF/Jyy	.	.	.	.	8a/Jyy	8f\Jyy	.	16cc\yy	.
.	.	.	.	.	.	.	.	16dd\JJyy|	.
=138	=138	=138	=138	=138	=138	=138	=138	=138	=138
!LO:TX:t=P:problem:mixed beam	!	!	!LO:N:vis=00	!	!	!	!	!	!
8F\Lyy	.	.	0r	.	8a/Lyy	8f\Lyy	.	16cc\LLyy	.
.	.	.	.	.	.	.	.	16b-\yy	.
8FF/yy	.	.	.	.	8a/yy	8f\yy	.	16cc\yy	.
.	.	.	.	.	.	.	.	16aa\JJyy	.
8F\yy	.	.	.	.	8a/yy	8f\yy	.	4cc\yy	.
8FF/Jyy	.	.	.	.	8a/Jyy	8f\Jyy	.	.	.
*	*	*	*	*	*v	*v	*	*	*
=139	=139	=139	=139	=139	=139	=139	=139	=139
!	!	!	!	!	!	!LO:DY:t=f&colon;	!	!LO:DY:t=f&colon;
4c\yy	.	f	.	.	4cc\yy	f	4cc\yy	f
(16A\LLyy	.	.	.	.	(16a/LLyy	.	(16a/LLyy	.
16G\)yy	.	.	.	.	16g/)yy	.	16g/)yy	.
16A\yy|	.	.	.	.	(16a/yy	.	16a/yy	.
16F\JJyy|	.	.	.	.	16f/JJ)yy	.	16f/JJyy	.
=140	=140	=140	=140	=140	=140	=140	=140||:	=140
!	!	!LO:DY:t=pia.	!	!	!	!	!LO:TX:t=P:problem:nad taktem łuk i adnotacja "bis"	!
8c\Lyy|	.	p	.	.	8cc\Lyy|	.	8cc'\Lyy	.
8c\Jyy|	.	.	.	.	8cc\Jyy|	.	8cc'\Jyy	.
(16A\LLyy	.	.	.	.	(16a/LLyy	.	(16a/LLyy	.
16G\)yy	.	.	.	.	16g/)yy	.	16g/)yy	.
16A\yy|	.	.	.	.	(16a/yy	.	16a'/yy	.
16F\JJyy|	.	.	.	.	16f/JJ)yy	.	16f'/JJyy	.
!	!	!	!	!	!	!	!LO:SIC:t:=:v:custos cc	!
!	!	!	!	!	!	!	!LO:LB:g=original	!
=141	=141	=141	=141	=141	=141	=141	=141:||	=141
!	!	!	!	!	!LO:TX:t=P:problem:mixed beam	!	!LO:TX:t=P:problem:takt zapisany powtórką	!
8c\Lyy|	.	.	.	.	8c/Lyy	.	8cc'\Lyy	.
8c\Jyy|	.	.	.	.	8cc\Jyy|	.	8cc'\Jyy	.
(16A\LLyy	.	.	.	.	(16a/LLyy	.	(16a/LLyy	.
16G\)yy	.	.	.	.	16g/)yy	.	16g/)yy	.
16A\yy|	.	.	.	.	(16a/yy	.	16a'/yy	.
!	!	!	!	!	!	!	!LO:SIC:t:=:v:custos c	!
16F\JJyy|	.	.	.	.	16f/JJ)yy	.	16f'/JJyy	.
=142	=142	=142	=142	=142	=142	=142	=142	=142
!LO:TX:t=P:problem:mixed beam	!	!	!LO:N:vis=00	!	!LO:TX:t=P:problem:mixed beam	!	!LO:TX:t=P:problem:mixed beam	!
8c\Lyy	.	.	0r	.	8cc\Lyy	.	8cc\Lyy	.
8C/Jyy	.	.	.	.	8c/Jyy	.	8c/Jyy	.
4C/yy	.	.	.	.	4c/yy	.	4c/yy	.
=143	=143	=143	=143	=143	=143	=143	=143	=143
*	*	*	*	*	*^	*	*	*
8F\Lyy	.	.	.	.	8a/Lyy	8f\Lyy	.	8.f/Lyy	.
8F\yy	.	.	.	.	8a/Jyy	8f\Jyy	.	.	.
.	.	.	.	.	.	.	.	16a/Jkyy	.
8F\yy	.	.	.	.	8ryy	8ryy	.	(16cc\LLyy	.
.	.	.	.	.	.	.	.	16bn\)yy	.
!	!	!	!	!	!LO:SIC:t:=:v:custos g	!	!	!	!
8F\Jyy	.	.	.	.	8a/yy	8f\yy	.	(16dd\yy	.
.	.	.	.	.	.	.	.	16cc\JJ)yy	.
!	!	!	!	!	!LO:LB:g=original	!	!	!	!
=144	=144	=144	=144	=144	=144	=144	=144	=144	=144
!LO:TX:t=P:problem:mixed beam	!	!	!	!	!	!	!	!	!
8E\Lyy	.	.	.	.	8g/Lyy	8c\Lyy	.	16bn\LLyy	.
.	.	.	.	.	.	.	.	16cc\yy	.
8E\yy	.	.	.	.	8g/yy	8c\yy	.	16g\yy	.
.	.	.	.	.	.	.	.	16b-X\JJyy	.
.	.	.	.	.	.	.	.	16qqb-/yy	.
8F\yy	.	.	.	.	8a/yy	8f\yy	.	8a/Lyy	.
!LO:SIC:t:=:v:custos f	!	!	!	!	!	!	!	!	!
8FF/Jyy	.	.	.	.	8a/Jyy	8f\Jyy	.	16g/Lyy	.
.	.	.	.	.	.	.	.	16f/JJyy	.
!LO:LB:g=original	!	!	!	!	!	!	!	!	!
=145	=145	=145	=145	=145	=145	=145	=145	=145	=145
!	!	!	!	!	!	!	!LO:DY:t=p&colon;	!	!
8F\Lyy	.	p	.	.	8a/Lyy	8f\Lyy	p	8.f/Lyy	.
8F\yy	.	.	.	.	8a/Jyy	8f\Jyy	.	.	.
.	.	.	.	.	.	.	.	16a/Jkyy	p
8F\yy	.	.	.	.	8ryy	8ryy	.	16cc\LLyy	.
.	.	.	.	.	.	.	.	16bn\yy	.
8F\Jyy	.	.	.	.	8a/yy	8f\yy	.	16dd\yy	.
.	.	.	.	.	.	.	.	16cc\JJyy	.
=146	=146	=146	=146	=146	=146	=146	=146	=146	=146
!	!	!	!LO:N:vis=00	!	!	!	!	!	!
8E\Lyy	.	.	0r	.	8g/Lyy	8c\Lyy	.	16bn\LLyy	.
.	.	.	.	.	.	.	.	16cc\yy	.
8E\yy	.	.	.	.	16g/Lyy	8c\Jyy	.	16g\yy	.
.	.	.	.	.	16b-/JJyy	.	.	16b-X\JJyy	.
.	.	.	.	.	.	.	.	16qqb-/yy	.
8F\yy	.	.	.	.	8a/Lyy	8f\Lyy	.	8a/Lyy	.
8F\Jyy	.	.	.	.	8a/Jyy	8f\Jyy	.	16g/Lyy	.
.	.	.	.	.	.	.	.	16f/JJyy	.
*	*	*	*	*	*v	*v	*	*	*
=147	=147	=147	=147	=147	=147	=147	=147||:	=147
!	!	!	!	!	!	!LO:DY:t=f	!or	!
4F\yy	.	f	.	.	8ffyy/ 8cc/yy 8f/yy	f	8ffyy/ 8cc/yy 8f/yy	f
.	.	.	.	.	(16a/LLyy	.	16a/LLyy	.
.	.	.	.	.	16cc/JJ)yy	.	16cc/JJyy	.
.	.	.	.	.	16qqcc/yy	.	8qqcc/yy	.
4C/yy	.	.	.	.	(8b-/Lyy	.	8b-X/Lyy	.
.	.	.	.	.	16g/Lyy	.	16g/Lyy	.
.	.	.	.	.	16e/JJ)yy	.	16e/JJyy	.
=148	=148	=148	=148	=148	=148	=148	=148	=148
!	!	!	!	!	!	!	!LO:TX:t=P:problem:mixed beam	!
4FF/yy	.	.	.	.	8f/Lyy|	.	8f/Lyy	.
.	.	.	.	.	8a/yy|	.	8ff/yy	.
4ryy	.	.	.	.	8f/yy	.	8f/yy	.
.	.	.	.	.	8cc/Jyy	.	8aa/Jyy	.
=149	=149	=149	=149	=149	=149	=149	=149	=149
4F\yy	.	.	.	.	8ffyy/ 8cc/yy 8f/yy	.	8ffyy/ 8cc/yy 8f'/yy	.
.	.	.	.	.	(16a/LLyy	.	(16a/LLyy	.
.	.	.	.	.	16cc/JJ)yy	.	16cc/JJ)yy	.
.	.	.	.	.	16qqcc/yy	.	8qqcc/yy	.
4C/yy	.	.	.	.	8b-/Lyy	.	8b-/Lyy	.
.	.	.	.	.	(16g/Lyy	.	16g/Lyy	.
.	.	.	.	.	16e/JJ)yy	.	16e/JJyy	.
=150	=150	=150	=150	=150	=150	=150	=150	=150
!LO:TX:t=P:problem:mixed beam	!	!	!LO:N:vis=00	!	!	!	!	!
8FF/Lyy	.	.	2ryy	.	(16f/LLyy	.	(16f/LLyy	.
.	.	.	.	.	16c/J)yy	.	16c/J)yy	.
8F\Jyy	.	.	.	.	8a/Jyy|	.	8a/Jyy	.
4FF/yy	.	.	.	.	8f/yy	.	8f/yy	.
!	!	!	!	!	!	!	!LO:TX:a:i:t=Finis	!
.	.	.	.	.	8r;yy	.	8r;yy	.
=151	=151	=151	=151	=151	=151	=151	=151:||	=151
!	!	!	!	!	!	!	!LO:TX:t=P:problem:takty 31-34 zapisane powtórką, z odsyłaczami "Re= pris."	!
!LO:TX:t=P:problem:mixed beam	!	!	!	!	!	!	!or	!
8F\Lyy	.	p	2ryy	.	8ffyy/ 8cc/yy 8f/yy	p	8ffyy/ 8ccyy/ 8f/yy	f
8FF/yy	.	.	.	.	16f/LLyy	.	16a/LLyy	.
.	.	.	.	.	16a/JJyy	.	16cc/JJyy	.
.	.	.	.	.	16qqa/yy	.	8qqcc/yy	.
8C/yy	.	.	.	.	8g/Lyy	.	8b-X/Lyy	.
8CC/Jyy	.	.	.	.	(16b-/Lyy	.	16g/Lyy	.
.	.	.	.	.	16g/JJ)yy	.	16e/JJyy	.
=152	=152	=152	=152	=152	=152	=152	=152	=152
!	!	!	!	!	!	!	!LO:TX:t=P:problem:mixed beam	!
4FF/yy	.	.	2ryy	.	8f/Lyy	.	8f/Lyy	.
.	.	.	.	.	8a/yy	.	8ff/yy	.
4ryy	.	.	.	.	8f/yy	.	8f/yy	.
.	.	.	.	.	8cc/Jyy	.	8aa/Jyy	.
=153	=153	=153	=153	=153	=153	=153	=153	=153
!LO:TX:t=P:problem:mixed beam	!	!	!	!	!or.	!	!	!
8F\Lyy	.	f	2ryy	.	8ffyy/ 8cc/yy 8f/yy	f	8ffyy/ 8ccyy/ 8f'/yy	.
8FF/yy	.	.	.	.	16f/LLyy	.	(16a/LLyy	.
.	.	.	.	.	16a/JJyy	.	16cc/JJ)yy	.
.	.	.	.	.	16qqa/yy	.	8qqcc/yy	.
8C/yy	.	.	.	.	8g/Lyy	.	8b-/Lyy	.
8CC/Jyy	.	.	.	.	16b-/Lyy	.	16g/Lyy	.
!	!	!	!	!	!LO:SIC:t:=:v:custos f	!	!	!
.	.	.	.	.	16g/JJyy	.	16e/JJyy	.
!	!	!	!	!	!LO:LB:g=original	!	!	!
=154	=154	=154	=154	=154	=154	=154	=154	=154
!LO:TX:t=P:problem:mixed beam	!	!	!	!	!	!	!	!
8FF/Lyy	.	.	2ryy	.	8f/Lyy	.	(16f/LLyy	.
.	.	.	.	.	.	.	16c/J)yy	.
8F\Jyy	.	.	.	.	8c/Jyy	.	8a/Jyy|	.
8FF/yy	.	.	.	.	8A/yy	.	8f/yy	.
!LO:TX:a:i:t=Finis	!	!	!	!	!LO:TX:a:i:t=finis	!	!LO:TX:a:i:t=Finis	!
8r;>;<yy	.	.	.	.	8r;>;<yy	.	8r;yy	.
==	==	==	==	==	==	==	==	==
*-	*-	*-	*-	*-	*-	*-	*-	*-
!!!system-decoration: [(s1,s2,s3,s4)]
!!!RDF**kern: > = above
!!!RDF**kern: < = below
!!!RDF**dynam: p = "p:"
!!!RDF**dynam: f = "for:"
!!!EED: Leszek Kubiak
!!!EST: 2021-01-14
!!!AIN: 1 bass 1 empty 1 flt 2 violn
!!!ENC: Solarz Mateusz
!!!END: 2020-11-26
!!!RDF**kern: | = vertical stroke
